P3
32 32
255
69 107 73
69 107 73
69 107 73
68 106 72
68 106 72
67 106 72
67 105 72
67 105 72
66 105 71
66 104 71
66 104 71
65 104 71
65 104 71
65 104 71
65 104 71
65 103 71
65 103 71
65 104 71
65 104 71
65 104 71
65 104 71
66 104 71
66 104 71
66 105 71
67 105 72
67 105 72
67 106 72
68 106 72
68 106 72
69 107 73
69 107 73
69 107 73
69 107 73
68 107 73
68 106 72
68 106 72
67 105 72
67 105 72
66 105 71
66 104 71
66 104 71
65 104 71
65 103 71
65 103 70
64 103 70
64 103 70
64 103 70
64 103 70
64 103 70
64 103 70
64 103 70
64 103 70
65 103 70
65 103 71
65 104 71
66 104 71
66 104 71
66 105 71
67 105 72
67 105 72
68 106 72
68 106 72
68 107 73
69 107 73
69 107 73
68 106 72
68 106 72
67 105 72
67 105 72
66 105 71
66 104 71
65 104 71
65 103 71
64 103 70
64 103 70
64 103 70
64 102 70
63 102 70
63 102 70
63 102 70
63 102 70
63 102 70
63 102 70
64 102 70
64 103 70
64 103 70
64 103 70
65 103 71
65 104 71
66 104 71
66 105 71
67 105 72
67 105 72
68 106 72
68 106 72
69 107 73
68 106 72
68 106 72
67 105 72
67 105 72
66 104 71
66 104 71
65 104 71
65 103 70
64 103 70
64 102 70
63 102 70
63 102 70
63 102 69
63 102 69
62 101 69
62 101 69
62 101 69
62 101 69
63 102 69
63 102 69
63 102 70
63 102 70
64 102 70
64 103 70
65 103 70
65 104 71
66 104 71
66 104 71
67 105 72
67 105 72
68 106 72
68 106 72
68 106 72
67 105 72
67 105 72
66 104 71
65 104 71
65 104 71
64 103 70
64 103 70
63 102 70
63 102 70
63 102 69
62 101 69
62 101 69
62 101 69
62 101 69
62 101 69
62 101 69
62 101 69
62 101 69
62 101 69
62 101 69
63 102 69
63 102 70
63 102 70
64 103 70
64 103 70
65 104 71
65 104 71
66 104 71
67 105 72
67 105 72
68 106 72
67 106 72
67 105 72
66 105 71
66 104 71
65 104 71
64 103 70
64 103 70
63 102 70
63 102 69
62 101 69
62 101 69
62 101 69
61 100 69
61 100 68
61 100 68
61 100 68
61 100 68
61 100 68
61 100 68
61 100 69
62 101 69
62 101 69
62 101 69
63 102 69
63 102 70
64 103 70
64 103 70
65 104 71
66 104 71
66 105 71
67 105 72
67 106 72
67 105 72
66 105 71
66 104 71
65 104 71
64 103 70
64 103 70
63 102 70
63 102 69
62 101 69
62 101 69
61 100 69
61 100 68
60 100 68
60 99 68
60 99 68
60 99 68
60 99 68
60 99 68
60 99 68
60 100 68
61 100 68
61 100 69
62 101 69
62 101 69
63 102 69
63 102 70
64 103 70
64 103 70
65 104 71
66 104 71
66 105 71
67 105 72
67 105 72
66 104 71
65 104 71
65 103 70
64 103 70
63 102 70
63 102 69
62 101 69
61 101 69
61 100 68
60 100 68
60 99 68
60 99 68
59 99 68
59 99 67
59 99 67
59 99 67
59 99 67
59 99 68
60 99 68
60 99 68
60 100 68
61 100 68
61 101 69
62 101 69
63 102 69
63 102 70
64 103 70
65 103 70
65 104 71
66 104 71
67 105 72
66 105 71
66 104 71
65 103 71
64 103 70
63 102 70
63 102 69
62 101 69
61 101 69
61 100 68
60 100 68
60 99 68
59 99 67
59 98 67
59 98 67
58 98 67
58 98 67
58 98 67
58 98 67
59 98 67
59 98 67
59 99 67
60 99 68
60 100 68
61 100 68
61 101 69
62 101 69
63 102 69
63 102 70
64 103 70
65 103 71
66 104 71
66 105 71
66 104 71
65 104 71
64 103 70
64 102 70
63 102 70
62 101 69
62 101 69
61 100 68
60 100 68
60 99 68
59 99 67
59 98 67
58 98 67
58 97 67
58 97 67
58 97 66
58 97 66
58 97 67
58 97 67
58 98 67
59 98 67
59 99 67
60 99 68
60 100 68
61 100 68
62 101 69
62 101 69
63 102 70
64 102 70
64 103 70
65 104 71
66 104 71
66 104 71
65 103 71
64 103 70
63 102 70
63 102 69
62 101 69
61 100 69
60 100 68
60 99 68
59 99 67
59 98 67
58 98 67
58 97 66
57 97 66
57 97 66
57 97 66
57 97 66
57 97 66
57 97 66
58 97 66
58 98 67
59 98 67
59 99 67
60 99 68
60 100 68
61 100 69
62 101 69
63 102 69
63 102 70
64 103 70
65 103 71
66 104 71
65 104 71
65 103 70
64 103 70
63 102 70
62 101 69
62 101 69
61 100 68
60 99 68
59 99 67
59 98 67
58 98 67
57 97 66
57 97 66
57 96 66
56 96 66
56 96 66
56 96 66
56 96 66
57 96 66
57 97 66
57 97 66
58 98 67
59 98 67
59 99 67
60 99 68
61 100 68
62 101 69
62 101 69
63 102 70
64 103 70
65 103 70
65 104 71
65 104 71
64 103 70
64 102 70
63 102 69
62 101 69
61 100 69
60 100 68
60 99 68
59 98 67
58 98 67
58 97 66
57 97 66
57 96 66
56 96 66
56 96 66
56 96 65
56 96 65
56 96 66
56 96 66
57 96 66
57 97 66
58 97 66
58 98 67
59 98 67
60 99 68
60 100 68
61 100 69
62 101 69
63 102 69
64 102 70
64 103 70
65 104 71
65 104 71
64 103 70
63 102 70
63 102 69
62 101 69
61 100 68
60 99 68
59 99 68
59 98 67
58 97 67
57 97 66
57 96 66
56 96 66
56 96 65
56 95 65
55 95 65
55 95 65
56 95 65
56 96 65
56 96 66
57 96 66
57 97 66
58 97 67
59 98 67
59 99 68
60 99 68
61 100 68
62 101 69
63 102 69
63 102 70
64 103 70
65 104 71
65 104 71
64 103 70
63 102 70
62 101 69
62 101 69
61 100 68
60 99 68
59 99 67
58 98 67
58 97 67
57 97 66
56 96 66
56 96 66
56 95 65
55 95 65
55 95 65
55 95 65
55 95 65
56 95 65
56 96 66
56 96 66
57 97 66
58 97 67
58 98 67
59 99 67
60 99 68
61 100 68
62 101 69
62 101 69
63 102 70
64 103 70
65 104 71
65 103 71
64 103 70
63 102 70
62 101 69
62 101 69
61 100 68
60 99 68
59 99 67
58 98 67
58 97 66
57 97 66
56 96 66
56 96 65
55 95 65
55 95 65
55 95 65
55 95 65
55 95 65
55 95 65
56 96 65
56 96 66
57 97 66
58 97 66
58 98 67
59 99 67
60 99 68
61 100 68
62 101 69
62 101 69
63 102 70
64 103 70
65 103 71
65 103 71
64 103 70
63 102 70
62 101 69
62 101 69
61 100 68
60 99 68
59 99 67
58 98 67
58 97 66
57 97 66
56 96 66
56 96 65
55 95 65
55 95 65
55 95 65
55 95 65
55 95 65
55 95 65
56 96 65
56 96 66
57 97 66
58 97 66
58 98 67
59 99 67
60 99 68
61 100 68
62 101 69
62 101 69
63 102 70
64 103 70
65 103 71
65 104 71
64 103 70
63 102 70
62 101 69
62 101 69
61 100 68
60 99 68
59 99 67
58 98 67
58 97 67
57 97 66
56 96 66
56 96 66
56 95 65
55 95 65
55 95 65
55 95 65
55 95 65
56 95 65
56 96 66
56 96 66
57 97 66
58 97 67
58 98 67
59 99 67
60 99 68
61 100 68
62 101 69
62 101 69
63 102 70
64 103 70
65 104 71
65 104 71
64 103 70
63 102 70
63 102 69
62 101 69
61 100 68
60 99 68
59 99 68
59 98 67
58 97 67
57 97 66
57 96 66
56 96 66
56 96 65
56 95 65
55 95 65
55 95 65
56 95 65
56 96 65
56 96 66
57 96 66
57 97 66
58 97 67
59 98 67
59 99 68
60 99 68
61 100 68
62 101 69
63 102 69
63 102 70
64 103 70
65 104 71
65 104 71
64 103 70
64 102 70
63 102 69
62 101 69
61 100 69
60 100 68
60 99 68
59 98 67
58 98 67
58 97 66
57 97 66
57 96 66
56 96 66
56 96 66
56 96 65
56 96 65
56 96 66
56 96 66
57 96 66
57 97 66
58 97 66
58 98 67
59 98 67
60 99 68
60 100 68
61 100 69
62 101 69
63 102 69
64 102 70
64 103 70
65 104 71
65 104 71
65 103 70
64 103 70
63 102 70
62 101 69
62 101 69
61 100 68
60 99 68
59 99 67
59 98 67
58 98 67
57 97 66
57 97 66
57 96 66
56 96 66
56 96 66
56 96 66
56 96 66
57 96 66
57 97 66
57 97 66
58 98 67
59 98 67
59 99 67
60 99 68
61 100 68
62 101 69
62 101 69
63 102 70
64 103 70
65 103 70
65 104 71
66 104 71
65 103 71
64 103 70
63 102 70
63 102 69
62 101 69
61 100 69
60 100 68
60 99 68
59 99 67
59 98 67
58 98 67
58 97 66
57 97 66
57 97 66
57 97 66
57 97 66
57 97 66
57 97 66
58 97 66
58 98 67
59 98 67
59 99 67
60 99 68
60 100 68
61 100 69
62 101 69
63 102 69
63 102 70
64 103 70
65 103 71
66 104 71
66 104 71
65 104 71
64 103 70
64 102 70
63 102 70
62 101 69
62 101 69
61 100 68
60 100 68
60 99 68
59 99 67
59 98 67
58 98 67
58 97 67
58 97 67
58 97 66
58 97 66
58 97 67
58 97 67
58 98 67
59 98 67
59 99 67
60 99 68
60 100 68
61 100 68
62 101 69
62 101 69
63 102 70
64 102 70
64 103 70
65 104 71
66 104 71
66 105 71
66 104 71
65 103 71
64 103 70
63 102 70
63 102 69
62 101 69
61 101 69
61 100 68
60 100 68
60 99 68
59 99 67
59 98 67
59 98 67
58 98 67
58 98 67
58 98 67
58 98 67
59 98 67
59 98 67
59 99 67
60 99 68
60 100 68
61 100 68
61 101 69
62 101 69
63 102 69
63 102 70
64 103 70
65 103 71
66 104 71
66 105 71
67 105 72
66 104 71
65 104 71
65 103 70
64 103 70
63 102 70
63 102 69
62 101 69
61 101 69
61 100 68
60 100 68
60 99 68
60 99 68
59 99 68
59 99 67
59 99 67
59 99 67
59 99 67
59 99 68
60 99 68
60 99 68
60 100 68
61 100 68
61 101 69
62 101 69
63 102 69
63 102 70
64 103 70
65 103 70
65 104 71
66 104 71
67 105 72
67 105 72
66 105 71
66 104 71
65 104 71
64 103 70
64 103 70
63 102 70
63 102 69
62 101 69
62 101 69
61 100 69
61 100 68
60 100 68
60 99 68
60 99 68
60 99 68
60 99 68
60 99 68
60 99 68
60 100 68
61 100 68
61 100 69
62 101 69
62 101 69
63 102 69
63 102 70
64 103 70
64 103 70
65 104 71
66 104 71
66 105 71
67 105 72
67 106 72
67 105 72
66 105 71
66 104 71
65 104 71
64 103 70
64 103 70
63 102 70
63 102 69
62 101 69
62 101 69
62 101 69
61 100 69
61 100 68
61 100 68
61 100 68
61 100 68
61 100 68
61 100 68
61 100 69
62 101 69
62 101 69
62 101 69
63 102 69
63 102 70
64 103 70
64 103 70
65 104 71
66 104 71
66 105 71
67 105 72
67 106 72
68 106 72
67 105 72
67 105 72
66 104 71
65 104 71
65 104 71
64 103 70
64 103 70
63 102 70
63 102 70
63 102 69
62 101 69
62 101 69
62 101 69
62 101 69
62 101 69
62 101 69
62 101 69
62 101 69
62 101 69
62 101 69
63 102 69
63 102 70
63 102 70
64 103 70
64 103 70
65 104 71
65 104 71
66 104 71
67 105 72
67 105 72
68 106 72
68 106 72
68 106 72
67 105 72
67 105 72
66 104 71
66 104 71
65 104 71
65 103 70
64 103 70
64 102 70
63 102 70
63 102 70
63 102 69
63 102 69
62 101 69
62 101 69
62 101 69
62 101 69
63 102 69
63 102 69
63 102 70
63 102 70
64 102 70
64 103 70
65 103 70
65 104 71
66 104 71
66 104 71
67 105 72
67 105 72
68 106 72
68 106 72
69 107 73
68 106 72
68 106 72
67 105 72
67 105 72
66 105 71
66 104 71
65 104 71
65 103 71
64 103 70
64 103 70
64 103 70
64 102 70
63 102 70
63 102 70
63 102 70
63 102 70
63 102 70
63 102 70
64 102 70
64 103 70
64 103 70
64 103 70
65 103 71
65 104 71
66 104 71
66 105 71
67 105 72
67 105 72
68 106 72
68 106 72
69 107 73
69 107 73
68 107 73
68 106 72
68 106 72
67 105 72
67 105 72
66 105 71
66 104 71
66 104 71
65 104 71
65 103 71
65 103 70
64 103 70
64 103 70
64 103 70
64 103 70
64 103 70
64 103 70
64 103 70
64 103 70
65 103 70
65 103 71
65 104 71
66 104 71
66 104 71
66 105 71
67 105 72
67 105 72
68 106 72
68 106 72
68 107 73
69 107 73
69 107 73
69 107 73
69 107 73
68 106 72
68 106 72
67 106 72
67 105 72
67 105 72
66 105 71
66 104 71
66 104 71
65 104 71
65 104 71
65 104 71
65 104 71
65 103 71
65 103 71
65 104 71
65 104 71
65 104 71
65 104 71
66 104 71
66 104 71
66 105 71
67 105 72
67 105 72
67 106 72
68 106 72
68 106 72
69 107 73
69 107 73
69 107 73
