P3
32 32
255
125 175 215
124 174 215
123 173 214
121 173 214
120 172 213
119 171 213
118 170 213
117 169 212
116 169 212
115 168 212
114 168 211
113 167 211
113 167 211
112 167 211
112 166 211
112 166 211
112 166 211
112 166 211
112 167 211
113 167 211
113 167 211
114 168 211
115 168 212
116 169 212
117 169 212
118 170 213
119 171 213
120 172 213
121 173 214
123 173 214
124 174 215
125 175 215
128 177 216
126 176 215
125 175 215
124 174 215
123 174 214
122 173 214
120 172 213
119 171 213
118 171 213
117 170 212
117 169 212
116 169 212
115 169 212
115 168 212
115 168 212
115 168 212
115 168 212
115 168 212
115 168 212
115 169 212
116 169 212
117 169 212
117 170 212
118 171 213
119 171 213
120 172 213
122 173 214
123 174 214
124 174 215
125 175 215
126 176 215
128 177 216
131 179 217
129 178 216
128 177 216
127 176 216
126 175 215
124 175 215
123 174 214
122 173 214
121 173 214
120 172 213
120 171 213
119 171 213
118 170 213
118 170 213
117 170 212
117 170 212
117 170 212
117 170 212
118 170 213
118 170 213
119 171 213
120 171 213
120 172 213
121 173 214
122 173 214
123 174 214
124 175 215
126 175 215
127 176 216
128 177 216
129 178 216
131 179 217
134 181 218
132 180 217
131 179 217
130 178 217
129 178 216
128 177 216
126 176 215
125 175 215
124 175 215
123 174 214
123 173 214
122 173 214
121 173 214
121 172 214
121 172 214
120 172 213
120 172 213
121 172 214
121 172 214
121 173 214
122 173 214
123 173 214
123 174 214
124 175 215
125 175 215
126 176 215
128 177 216
129 178 216
130 178 217
131 179 217
132 180 217
134 181 218
137 183 219
136 182 219
134 181 218
133 181 218
132 180 217
131 179 217
130 178 217
129 177 216
128 177 216
127 176 216
126 176 215
125 175 215
125 175 215
124 174 215
124 174 215
124 174 215
124 174 215
124 174 215
124 174 215
125 175 215
125 175 215
126 176 215
127 176 216
128 177 216
129 177 216
130 178 217
131 179 217
132 180 217
133 181 218
134 181 218
136 182 219
137 183 219
140 185 220
139 184 220
138 184 219
137 183 219
255 255 255
134 181 218
133 181 218
132 180 217
131 179 217
130 179 217
130 178 217
129 178 216
128 177 216
128 177 216
128 177 216
127 177 216
127 177 216
128 177 216
128 177 216
128 177 216
129 178 216
130 178 217
130 179 217
131 179 217
132 180 217
133 181 218
134 181 218
136 182 219
137 183 219
138 184 219
139 184 220
140 185 220
144 188 221
143 187 221
142 186 221
141 185 220
139 185 220
138 184 219
137 183 219
136 182 219
135 182 218
134 181 218
134 181 218
133 180 218
132 180 217
132 180 217
132 179 217
131 179 217
131 179 217
132 179 217
132 180 217
132 180 217
133 180 218
134 181 218
134 181 218
135 182 218
136 182 219
137 183 219
138 184 219
139 185 220
141 185 220
142 186 221
143 187 221
144 188 221
148 190 223
147 189 222
145 189 222
144 188 221
143 187 221
142 187 221
141 186 220
140 185 220
139 185 220
139 184 220
138 184 219
137 183 219
137 183 219
136 182 219
136 182 219
136 182 219
255 255 255
255 255 255
136 182 219
137 183 219
137 183 219
138 184 219
139 184 220
139 185 220
140 185 220
141 186 220
142 187 221
143 187 221
144 188 221
145 189 222
147 189 222
148 190 223
151 193 224
151 192 224
150 191 223
149 191 223
148 190 223
147 189 222
146 189 222
145 188 222
144 188 221
143 187 221
142 187 221
142 186 221
141 186 220
141 186 220
141 185 220
140 185 220
255 255 255
255 255 255
141 186 220
141 186 220
142 186 221
142 187 221
143 187 221
144 188 221
145 188 222
146 189 222
147 189 222
148 190 223
149 191 223
150 191 223
151 192 224
151 193 224
156 195 225
155 195 225
154 194 225
153 194 224
152 193 224
151 192 224
150 192 223
150 191 223
149 191 223
148 190 223
147 190 222
147 190 222
146 189 222
146 189 222
146 189 222
145 189 222
255 255 255
255 255 255
146 189 222
146 189 222
147 190 222
147 190 222
148 190 223
149 191 223
150 191 223
150 192 223
151 192 224
152 193 224
153 194 224
154 194 225
155 195 225
156 195 225
160 198 227
159 198 226
158 197 226
158 197 226
157 196 226
156 196 225
155 195 225
154 195 225
154 194 225
153 194 224
153 193 224
152 193 224
152 193 224
151 192 224
151 192 224
151 192 224
255 255 255
255 255 255
151 192 224
152 193 224
152 193 224
153 193 224
153 194 224
154 194 225
154 195 225
155 195 225
156 196 225
157 196 226
158 197 226
158 197 226
159 198 226
160 198 227
164 201 228
164 201 228
163 200 228
162 200 227
162 199 227
161 199 227
160 199 227
160 198 227
159 198 226
159 197 226
158 197 226
158 197 226
157 196 226
157 196 226
157 196 226
157 196 226
255 255 255
157 196 226
157 196 226
157 196 226
158 197 226
158 197 226
159 197 226
159 198 226
160 198 227
160 199 227
161 199 227
162 199 227
162 200 227
163 200 228
164 201 228
164 201 228
169 204 230
168 204 229
168 203 229
167 203 229
167 203 229
166 202 229
166 202 229
165 202 228
165 201 228
164 201 228
164 201 228
163 201 228
163 200 228
163 200 228
163 200 228
163 200 228
163 200 228
163 200 228
163 200 228
163 200 228
163 201 228
164 201 228
164 201 228
165 201 228
165 202 228
166 202 229
166 202 229
167 203 229
167 203 229
168 203 229
168 204 229
169 204 230
173 207 231
173 207 231
173 207 231
172 206 231
172 206 231
171 206 230
171 206 230
171 205 230
170 205 230
170 205 230
170 205 230
169 205 230
169 204 230
169 204 230
169 204 230
169 204 230
169 204 230
169 204 230
169 204 230
169 204 230
169 205 230
170 205 230
170 205 230
170 205 230
171 205 230
171 206 230
171 206 230
172 206 231
172 206 231
173 207 231
173 207 231
173 207 231
178 210 233
178 210 233
177 210 232
177 210 232
177 210 232
177 210 232
177 209 232
176 209 232
176 209 232
176 209 232
176 209 232
176 209 232
175 209 232
175 209 232
175 208 232
175 208 232
175 208 232
175 208 232
175 209 232
175 209 232
176 209 232
176 209 232
176 209 232
176 209 232
176 209 232
177 209 232
177 210 232
177 210 232
177 210 232
177 210 232
178 210 233
178 210 233
100 135 125
100 135 125
100 135 125
100 135 125
100 135 125
100 135 125
100 135 125
100 135 125
100 135 125
100 135 125
100 135 125
182 213 234
182 213 234
182 213 234
182 213 234
182 213 234
100 135 125
100 135 125
100 135 125
100 135 125
100 135 125
100 135 125
182 213 234
182 213 234
100 135 125
100 135 125
100 135 125
100 135 125
182 213 234
182 213 234
183 213 234
183 213 234
100 135 125
100 135 125
100 135 125
100 135 125
100 135 125
100 135 125
100 135 125
100 135 125
100 135 125
100 135 125
100 135 125
100 135 125
100 135 125
100 135 125
100 135 125
100 135 125
100 135 125
100 135 125
100 135 125
100 135 125
100 135 125
100 135 125
100 135 125
100 135 125
100 135 125
100 135 125
100 135 125
100 135 125
100 135 125
100 135 125
100 135 125
100 135 125
88 123 84
88 123 84
87 123 84
87 123 84
87 123 83
87 123 83
87 123 83
87 123 83
87 122 83
87 122 83
87 122 83
87 122 83
87 122 83
87 122 83
87 122 83
87 122 83
87 122 83
87 122 83
87 122 83
87 122 83
87 122 83
87 122 83
87 122 83
87 122 83
87 123 83
87 123 83
87 123 83
87 123 83
87 123 84
87 123 84
88 123 84
88 123 84
86 122 83
86 122 83
86 121 83
86 121 83
86 121 82
85 121 82
85 121 82
85 121 82
85 121 82
85 121 82
85 121 82
85 121 82
85 120 82
85 120 82
85 120 82
85 120 82
85 120 82
85 120 82
85 120 82
85 120 82
85 121 82
85 121 82
85 121 82
85 121 82
85 121 82
85 121 82
85 121 82
86 121 82
86 121 83
86 121 83
86 122 83
86 122 83
85 120 82
84 120 82
84 120 82
84 120 82
84 120 82
84 120 81
84 119 81
83 119 81
83 119 81
83 119 81
83 119 81
83 119 81
83 119 81
83 119 81
83 119 81
83 119 81
83 119 81
83 119 81
83 119 81
83 119 81
83 119 81
83 119 81
83 119 81
83 119 81
83 119 81
84 119 81
84 120 81
84 120 82
84 120 82
84 120 82
84 120 82
85 120 82
83 119 81
83 119 81
83 119 81
82 119 81
82 118 81
82 118 80
82 118 80
82 118 80
81 118 80
81 117 80
81 117 80
81 117 80
81 117 80
81 117 80
81 117 80
81 117 80
81 117 80
81 117 80
81 117 80
81 117 80
81 117 80
81 117 80
81 117 80
81 118 80
82 118 80
82 118 80
82 118 80
82 118 81
82 119 81
83 119 81
83 119 81
83 119 81
82 118 80
81 118 80
81 117 80
81 117 80
81 117 80
80 117 79
80 116 79
80 116 79
80 116 79
79 116 79
79 116 79
79 116 79
79 115 79
79 115 79
79 115 79
79 115 79
79 115 79
79 115 79
79 115 79
79 115 79
79 116 79
79 116 79
79 116 79
80 116 79
80 116 79
80 116 79
80 117 79
81 117 80
81 117 80
81 117 80
81 118 80
82 118 80
80 117 79
80 116 79
80 116 79
79 116 79
79 116 79
79 115 79
78 115 78
78 115 78
78 115 78
78 114 78
77 114 78
77 114 78
77 114 78
77 114 78
77 114 78
77 114 77
77 114 77
77 114 78
77 114 78
77 114 78
77 114 78
77 114 78
78 114 78
78 115 78
78 115 78
78 115 78
79 115 79
79 116 79
79 116 79
80 116 79
80 116 79
80 117 79
79 115 79
79 115 78
78 115 78
78 115 78
78 114 78
77 114 78
77 114 78
77 114 77
76 113 77
76 113 77
76 113 77
76 113 77
75 113 77
75 112 77
75 112 77
75 112 77
75 112 77
75 112 77
75 112 77
75 113 77
76 113 77
76 113 77
76 113 77
76 113 77
77 114 77
77 114 78
77 114 78
78 114 78
78 115 78
78 115 78
79 115 78
79 115 79
78 114 78
77 114 78
77 114 77
76 113 77
76 113 77
76 113 77
75 113 77
75 112 77
75 112 76
75 112 76
74 112 76
74 111 76
74 111 76
74 111 76
74 111 76
74 111 76
74 111 76
74 111 76
74 111 76
74 111 76
74 111 76
74 112 76
75 112 76
75 112 76
75 112 77
75 113 77
76 113 77
76 113 77
76 113 77
77 114 77
77 114 78
78 114 78
76 113 77
76 113 77
76 113 77
75 112 77
75 112 76
74 112 76
74 111 76
74 111 76
73 111 76
73 111 75
73 110 75
73 110 75
72 110 75
72 110 75
72 110 75
72 110 75
72 110 75
72 110 75
72 110 75
72 110 75
73 110 75
73 110 75
73 111 75
73 111 76
74 111 76
74 111 76
74 112 76
75 112 76
75 112 77
76 113 77
76 113 77
76 113 77
75 112 76
75 112 76
74 112 76
74 111 76
74 111 76
73 111 75
73 110 75
72 110 75
72 110 75
72 109 75
72 109 74
71 109 74
71 109 74
71 109 74
71 109 74
71 109 74
71 109 74
71 109 74
71 109 74
71 109 74
71 109 74
72 109 74
72 109 75
72 110 75
72 110 75
73 110 75
73 111 75
74 111 76
74 111 76
74 112 76
75 112 76
75 112 76
74 111 76
74 111 76
73 111 75
73 110 75
72 110 75
72 110 75
72 109 74
71 109 74
71 109 74
71 108 74
70 108 74
70 108 74
70 108 74
70 108 73
70 108 73
70 107 73
70 107 73
70 108 73
70 108 73
70 108 74
70 108 74
70 108 74
71 108 74
71 109 74
71 109 74
72 109 74
72 110 75
72 110 75
73 110 75
73 111 75
74 111 76
74 111 76
73 110 75
72 110 75
72 110 75
72 109 75
71 109 74
71 109 74
70 108 74
70 108 74
70 108 73
69 107 73
69 107 73
69 107 73
69 107 73
69 107 73
69 107 73
68 107 73
68 107 73
69 107 73
69 107 73
69 107 73
69 107 73
69 107 73
69 107 73
70 108 73
70 108 74
70 108 74
71 109 74
71 109 74
72 109 75
72 110 75
72 110 75
73 110 75
72 109 75
71 109 74
71 109 74
71 108 74
70 108 74
70 108 73
69 107 73
69 107 73
69 107 73
68 107 73
68 106 73
68 106 72
68 106 72
68 106 72
67 106 72
67 106 72
67 106 72
67 106 72
68 106 72
68 106 72
68 106 72
68 106 73
68 107 73
69 107 73
69 107 73
69 107 73
70 108 73
70 108 74
71 108 74
71 109 74
71 109 74
72 109 75
71 109 74
70 108 74
70 108 74
70 108 73
69 107 73
69 107 73
68 107 73
68 106 73
68 106 72
67 106 72
67 105 72
67 105 72
67 105 72
67 105 72
67 105 72
67 105 72
67 105 72
67 105 72
67 105 72
67 105 72
67 105 72
67 105 72
67 106 72
68 106 72
68 106 73
68 107 73
69 107 73
69 107 73
70 108 73
70 108 74
70 108 74
71 109 74
70 108 74
70 108 73
69 107 73
69 107 73
68 106 73
68 106 72
68 106 72
67 105 72
67 105 72
67 105 72
66 105 71
66 105 71
66 104 71
66 104 71
66 104 71
66 104 71
66 104 71
66 104 71
66 104 71
66 104 71
66 105 71
66 105 71
67 105 72
67 105 72
67 105 72
68 106 72
68 106 72
68 106 73
69 107 73
69 107 73
70 108 73
70 108 74
