P3
32 32
255
123 174 214
122 173 214
121 172 214
119 171 213
118 170 213
117 170 212
116 169 212
115 168 212
114 167 211
113 167 211
112 166 211
111 166 210
110 165 210
110 165 210
110 165 210
110 165 210
110 165 210
110 165 210
110 165 210
110 165 210
111 166 210
112 166 211
113 167 211
114 167 211
115 168 212
116 169 212
117 170 212
118 170 213
119 171 213
121 172 214
122 173 214
123 174 214
122 173 214
120 172 213
119 171 213
118 170 213
116 169 212
115 168 212
114 168 211
113 167 211
112 166 211
110 165 210
110 165 210
109 164 210
108 164 209
108 163 209
107 163 209
107 163 209
107 163 209
107 163 209
108 163 209
108 164 209
109 164 210
110 165 210
110 165 210
112 166 211
113 167 211
114 168 211
115 168 212
116 169 212
118 170 213
119 171 213
120 172 213
122 173 214
121 172 214
119 171 213
118 170 213
116 169 212
115 168 212
113 167 211
112 166 211
111 165 210
109 165 210
108 164 209
107 163 209
107 163 209
106 162 209
105 162 208
105 162 208
105 162 208
105 162 208
105 162 208
105 162 208
106 162 209
107 163 209
107 163 209
108 164 209
109 165 210
111 165 210
112 166 211
113 167 211
115 168 212
116 169 212
118 170 213
119 171 213
121 172 214
119 171 213
118 170 213
116 169 212
115 168 212
113 167 211
112 166 211
110 165 210
109 164 210
107 163 209
106 162 209
105 162 208
104 161 208
103 161 208
103 160 208
102 160 207
102 160 207
102 160 207
102 160 207
103 160 208
103 161 208
104 161 208
105 162 208
106 162 209
107 163 209
109 164 210
110 165 210
112 166 211
113 167 211
115 168 212
116 169 212
118 170 213
119 171 213
118 170 213
116 169 212
115 168 212
113 167 211
111 166 210
110 165 210
108 164 209
107 163 209
105 162 208
104 161 208
103 160 208
102 160 207
101 159 207
100 159 207
100 158 207
100 158 207
100 158 207
100 158 207
100 159 207
101 159 207
102 160 207
103 160 208
104 161 208
105 162 208
107 163 209
108 164 209
110 165 210
111 166 210
113 167 211
115 168 212
116 169 212
118 170 213
117 170 212
115 168 212
113 167 211
112 166 211
110 165 210
108 164 209
106 163 209
105 162 208
103 161 208
102 160 207
101 159 207
100 158 207
99 157 206
98 157 206
97 157 206
97 156 206
97 156 206
97 157 206
98 157 206
99 157 206
100 158 207
101 159 207
102 160 207
103 161 208
105 162 208
106 163 209
108 164 209
110 165 210
112 166 211
113 167 211
115 168 212
117 170 212
116 169 212
114 168 211
112 166 211
110 165 210
108 164 209
106 163 209
105 161 208
103 160 208
101 159 207
100 158 207
98 157 206
97 156 206
96 156 205
96 155 205
95 155 205
95 155 205
95 155 205
95 155 205
96 155 205
96 156 205
97 156 206
98 157 206
100 158 207
101 159 207
103 160 208
105 161 208
106 163 209
108 164 209
110 165 210
112 166 211
114 168 211
116 169 212
115 168 212
113 167 211
111 165 210
109 164 210
107 163 209
105 162 208
103 160 208
101 159 207
99 158 206
98 157 206
96 156 205
95 155 205
94 154 205
93 154 204
93 153 204
92 153 204
92 153 204
93 153 204
93 154 204
94 154 205
95 155 205
96 156 205
98 157 206
99 158 206
101 159 207
103 160 208
105 162 208
107 163 209
109 164 210
111 165 210
113 167 211
115 168 212
114 167 211
112 166 211
109 165 210
107 163 209
105 162 208
103 161 208
101 159 207
99 158 206
97 157 206
96 156 205
94 154 205
93 154 204
92 153 204
91 152 204
90 152 203
90 152 203
90 152 203
90 152 203
91 152 204
92 153 204
93 154 204
94 154 205
96 156 205
97 157 206
99 158 206
101 159 207
103 161 208
105 162 208
107 163 209
109 165 210
112 166 211
114 167 211
113 167 211
110 165 210
108 164 209
106 162 209
104 161 208
102 160 207
100 158 207
98 157 206
96 156 205
94 154 205
92 153 204
91 152 204
90 151 203
89 151 203
88 150 203
88 150 203
88 150 203
88 150 203
89 151 203
90 151 203
91 152 204
92 153 204
94 154 205
96 156 205
98 157 206
100 158 207
102 160 207
104 161 208
106 162 209
108 164 209
110 165 210
113 167 211
112 166 211
110 165 210
107 163 209
105 162 208
103 160 208
101 159 207
98 157 206
96 156 205
94 154 205
92 153 204
91 152 204
89 151 203
88 150 203
87 150 202
86 149 202
86 149 202
86 149 202
86 149 202
87 150 202
88 150 203
89 151 203
91 152 204
92 153 204
94 154 205
96 156 205
98 157 206
101 159 207
103 160 208
105 162 208
107 163 209
110 165 210
112 166 211
111 166 210
109 164 210
107 163 209
104 161 208
102 160 207
100 158 207
97 156 206
95 155 205
93 154 204
91 152 204
89 151 203
87 150 202
86 149 202
85 148 202
84 148 201
84 148 201
84 148 201
84 148 201
85 148 202
86 149 202
87 150 202
89 151 203
91 152 204
93 154 204
95 155 205
97 156 206
100 158 207
102 160 207
104 161 208
107 163 209
109 164 210
111 166 210
110 165 210
108 164 209
106 162 209
103 161 208
101 159 207
99 157 206
96 156 205
94 154 205
92 153 204
90 151 203
88 150 203
86 149 202
85 148 202
84 147 201
83 147 201
82 147 201
82 147 201
83 147 201
84 147 201
85 148 202
86 149 202
88 150 203
90 151 203
92 153 204
94 154 205
96 156 205
99 157 206
101 159 207
103 161 208
106 162 209
108 164 209
110 165 210
110 165 210
108 163 209
105 162 208
103 160 208
100 159 207
98 157 206
96 155 205
93 154 204
91 152 204
89 151 203
87 150 202
85 148 202
84 147 201
82 147 201
82 146 201
81 146 200
81 146 200
82 146 201
82 147 201
84 147 201
85 148 202
87 150 202
89 151 203
91 152 204
93 154 204
96 155 205
98 157 206
100 159 207
103 160 208
105 162 208
108 163 209
110 165 210
110 165 210
107 163 209
105 162 208
102 160 207
100 158 207
97 157 206
95 155 205
93 153 204
90 152 203
88 150 203
86 149 202
84 148 201
83 147 201
82 146 201
81 146 200
81 145 200
81 145 200
81 146 200
82 146 201
83 147 201
84 148 201
86 149 202
88 150 203
90 152 203
93 153 204
95 155 205
97 157 206
100 158 207
102 160 207
105 162 208
107 163 209
110 165 210
110 165 210
107 163 209
105 162 208
102 160 207
100 158 207
97 156 206
95 155 205
92 153 204
90 152 203
88 150 203
86 149 202
84 148 201
82 147 201
81 146 200
81 145 200
80 145 200
80 145 200
81 145 200
81 146 200
82 147 201
84 148 201
86 149 202
88 150 203
90 152 203
92 153 204
95 155 205
97 156 206
100 158 207
102 160 207
105 162 208
107 163 209
110 165 210
110 165 210
107 163 209
105 162 208
102 160 207
100 158 207
97 156 206
95 155 205
92 153 204
90 152 203
88 150 203
86 149 202
84 148 201
82 147 201
81 146 200
81 145 200
80 145 200
80 145 200
81 145 200
81 146 200
82 147 201
84 148 201
86 149 202
88 150 203
90 152 203
92 153 204
95 155 205
97 156 206
100 158 207
102 160 207
105 162 208
107 163 209
110 165 210
110 165 210
107 163 209
105 162 208
102 160 207
100 158 207
97 157 206
95 155 205
93 153 204
90 152 203
88 150 203
86 149 202
84 148 201
83 147 201
82 146 201
81 146 200
81 145 200
81 145 200
81 146 200
82 146 201
83 147 201
84 148 201
86 149 202
88 150 203
90 152 203
93 153 204
95 155 205
97 157 206
100 158 207
102 160 207
105 162 208
107 163 209
110 165 210
110 165 210
108 163 209
105 162 208
103 160 208
100 159 207
98 157 206
96 155 205
93 154 204
91 152 204
89 151 203
87 150 202
85 148 202
84 147 201
82 147 201
82 146 201
81 146 200
81 146 200
82 146 201
82 147 201
84 147 201
85 148 202
87 150 202
89 151 203
91 152 204
93 154 204
96 155 205
98 157 206
100 159 207
103 160 208
105 162 208
108 163 209
110 165 210
110 165 210
108 164 209
106 162 209
103 161 208
101 159 207
99 157 206
96 156 205
94 154 205
92 153 204
90 151 203
88 150 203
86 149 202
85 148 202
84 147 201
83 147 201
82 147 201
82 147 201
83 147 201
84 147 201
85 148 202
86 149 202
88 150 203
90 151 203
92 153 204
94 154 205
96 156 205
99 157 206
101 159 207
103 161 208
106 162 209
108 164 209
110 165 210
111 166 210
109 164 210
107 163 209
104 161 208
102 160 207
100 158 207
97 156 206
95 155 205
93 154 204
91 152 204
89 151 203
87 150 202
86 149 202
85 148 202
84 148 201
84 148 201
84 148 201
84 148 201
85 148 202
86 149 202
87 150 202
89 151 203
91 152 204
93 154 204
95 155 205
97 156 206
100 158 207
102 160 207
104 161 208
107 163 209
109 164 210
111 166 210
112 166 211
110 165 210
107 163 209
105 162 208
103 160 208
101 159 207
98 157 206
96 156 205
94 154 205
92 153 204
91 152 204
89 151 203
88 150 203
87 150 202
86 149 202
86 149 202
86 149 202
86 149 202
87 150 202
88 150 203
89 151 203
91 152 204
92 153 204
94 154 205
96 156 205
98 157 206
101 159 207
103 160 208
105 162 208
107 163 209
110 165 210
112 166 211
113 167 211
110 165 210
108 164 209
106 162 209
104 161 208
102 160 207
100 158 207
98 157 206
96 156 205
94 154 205
92 153 204
91 152 204
90 151 203
89 151 203
88 150 203
88 150 203
88 150 203
88 150 203
89 151 203
90 151 203
91 152 204
92 153 204
94 154 205
96 156 205
98 157 206
100 158 207
102 160 207
104 161 208
106 162 209
108 164 209
110 165 210
113 167 211
114 167 211
112 166 211
109 165 210
107 163 209
105 162 208
103 161 208
101 159 207
99 158 206
97 157 206
96 156 205
94 154 205
93 154 204
92 153 204
91 152 204
90 152 203
90 152 203
90 152 203
90 152 203
91 152 204
92 153 204
93 154 204
94 154 205
96 156 205
97 157 206
99 158 206
101 159 207
103 161 208
105 162 208
107 163 209
109 165 210
112 166 211
114 167 211
115 168 212
113 167 211
111 165 210
109 164 210
107 163 209
105 162 208
103 160 208
101 159 207
99 158 206
98 157 206
96 156 205
95 155 205
94 154 205
93 154 204
93 153 204
92 153 204
92 153 204
93 153 204
93 154 204
94 154 205
95 155 205
96 156 205
98 157 206
99 158 206
101 159 207
103 160 208
105 162 208
107 163 209
109 164 210
111 165 210
113 167 211
115 168 212
116 169 212
114 168 211
112 166 211
110 165 210
108 164 209
106 163 209
105 161 208
103 160 208
255 247 210
100 158 207
98 157 206
97 156 206
96 156 205
96 155 205
95 155 205
95 155 205
95 155 205
95 155 205
96 155 205
96 156 205
97 156 206
98 157 206
100 158 207
101 159 207
103 160 208
105 161 208
106 163 209
108 164 209
110 165 210
112 166 211
114 168 211
116 169 212
117 170 212
115 168 212
113 167 211
112 166 211
110 165 210
108 164 209
255 247 210
255 247 210
255 247 210
255 247 210
101 159 207
100 158 207
99 157 206
98 157 206
97 157 206
97 156 206
97 156 206
97 157 206
98 157 206
99 157 206
100 158 207
101 159 207
102 160 207
103 161 208
105 162 208
106 163 209
108 164 209
110 165 210
112 166 211
113 167 211
115 168 212
117 170 212
118 170 213
116 169 212
115 168 212
113 167 211
111 166 210
110 165 210
255 247 210
255 247 210
255 247 210
255 247 210
103 160 208
102 160 207
101 159 207
100 159 207
100 158 207
100 158 207
100 158 207
100 158 207
100 159 207
101 159 207
102 160 207
103 160 208
104 161 208
105 162 208
107 163 209
108 164 209
110 165 210
111 166 210
113 167 211
115 168 212
116 169 212
118 170 213
119 171 213
118 170 213
116 169 212
115 168 212
113 167 211
112 166 211
255 247 210
255 247 210
255 247 210
106 162 209
105 162 208
104 161 208
103 161 208
103 160 208
102 160 207
102 160 207
102 160 207
102 160 207
103 160 208
103 161 208
104 161 208
105 162 208
106 162 209
107 163 209
109 164 210
110 165 210
112 166 211
113 167 211
115 168 212
116 169 212
118 170 213
119 171 213
121 172 214
119 171 213
118 170 213
116 169 212
115 168 212
113 167 211
112 166 211
111 165 210
109 165 210
108 164 209
107 163 209
107 163 209
106 162 209
105 162 208
105 162 208
105 162 208
105 162 208
105 162 208
105 162 208
106 162 209
107 163 209
107 163 209
108 164 209
109 165 210
111 165 210
112 166 211
113 167 211
115 168 212
116 169 212
118 170 213
119 171 213
121 172 214
122 173 214
120 172 213
119 171 213
118 170 213
116 169 212
115 168 212
114 168 211
113 167 211
112 166 211
110 165 210
110 165 210
109 164 210
108 164 209
108 163 209
107 163 209
107 163 209
107 163 209
107 163 209
108 163 209
108 164 209
109 164 210
110 165 210
110 165 210
112 166 211
113 167 211
114 168 211
115 168 212
116 169 212
118 170 213
119 171 213
120 172 213
122 173 214
123 174 214
122 173 214
121 172 214
119 171 213
118 170 213
117 170 212
116 169 212
115 168 212
114 167 211
113 167 211
112 166 211
111 166 210
110 165 210
110 165 210
110 165 210
110 165 210
110 165 210
110 165 210
110 165 210
110 165 210
111 166 210
112 166 211
113 167 211
114 167 211
115 168 212
116 169 212
117 170 212
118 170 213
119 171 213
121 172 214
122 173 214
123 174 214
