P3
32 32
255
195 233 245
195 233 245
195 233 245
135 200 218
139 204 222
134 199 217
136 201 219
134 199 217
129 194 212
137 202 220
143 208 226
142 207 225
144 209 227
132 197 215
135 200 218
131 196 214
129 194 212
144 209 227
136 201 219
132 197 215
128 193 211
144 209 227
133 198 216
127 192 210
130 195 213
140 205 223
144 209 227
132 197 215
136 201 219
126 191 209
129 194 212
144 209 227
195 233 245
195 233 245
133 198 216
143 208 226
134 199 217
142 207 225
133 198 216
143 208 226
136 201 219
142 207 225
138 203 221
134 199 217
126 191 209
126 191 209
144 209 227
142 207 225
138 203 221
136 201 219
131 196 214
140 205 223
132 197 215
134 199 217
125 190 208
137 202 220
144 209 227
127 192 210
130 195 213
145 210 228
135 200 218
128 193 211
144 209 227
195 233 245
195 233 245
145 210 228
139 204 222
136 201 219
144 209 227
138 203 221
142 207 225
132 197 215
136 201 219
139 204 222
142 207 225
132 197 215
131 196 214
144 209 227
125 190 208
129 194 212
142 207 225
127 192 210
140 205 223
145 210 228
140 205 223
134 199 217
136 201 219
138 203 221
132 197 215
141 206 224
145 210 228
132 197 215
137 202 220
133 198 216
195 233 245
195 233 245
143 208 226
135 200 218
126 191 209
126 191 209
132 197 215
133 198 216
143 208 226
125 190 208
139 204 222
144 209 227
129 194 212
139 204 222
138 203 221
138 203 221
131 196 214
125 190 208
126 191 209
126 191 209
128 193 211
133 198 216
133 198 216
145 210 228
133 198 216
145 210 228
133 198 216
126 191 209
128 193 211
127 192 210
138 203 221
195 233 245
195 233 245
195 233 245
131 196 214
134 199 217
134 199 217
141 206 224
143 208 226
145 210 228
142 207 225
134 199 217
130 195 213
140 205 223
130 195 213
142 207 225
130 195 213
143 208 226
125 190 208
139 204 222
135 200 218
144 209 227
131 196 214
135 200 218
130 195 213
144 209 227
144 209 227
144 209 227
126 191 209
127 192 210
138 203 221
131 196 214
195 233 245
195 233 245
195 233 245
129 194 212
127 192 210
127 192 210
132 197 215
129 194 212
128 193 211
135 200 218
128 193 211
126 191 209
129 194 212
140 205 223
128 193 211
139 204 222
139 204 222
137 202 220
139 204 222
136 201 219
125 190 208
134 199 217
138 203 221
140 205 223
128 193 211
130 195 213
142 207 225
133 198 216
135 200 218
136 201 219
140 205 223
195 233 245
195 233 245
195 233 245
129 194 212
135 200 218
133 198 216
125 190 208
139 204 222
128 193 211
136 201 219
142 207 225
135 200 218
145 210 228
141 206 224
129 194 212
131 196 214
136 201 219
141 206 224
130 195 213
130 195 213
135 200 218
133 198 216
127 192 210
130 195 213
140 205 223
127 192 210
137 202 220
126 191 209
143 208 226
130 195 213
145 210 228
195 233 245
195 233 245
195 233 245
133 198 216
141 206 224
138 203 221
135 200 218
138 203 221
130 195 213
138 203 221
144 209 227
136 201 219
125 190 208
129 194 212
144 209 227
138 203 221
144 209 227
144 209 227
144 209 227
130 195 213
137 202 220
130 195 213
130 195 213
129 194 212
132 197 215
128 193 211
131 196 214
134 199 217
133 198 216
141 206 224
144 209 227
195 233 245
195 233 245
195 233 245
127 192 210
142 207 225
129 194 212
133 198 216
134 199 217
138 203 221
125 190 208
127 192 210
145 210 228
137 202 220
137 202 220
142 207 225
127 192 210
125 190 208
142 207 225
134 199 217
138 203 221
128 193 211
144 209 227
145 210 228
132 197 215
134 199 217
133 198 216
136 201 219
125 190 208
137 202 220
132 197 215
126 191 209
195 233 245
195 233 245
195 233 245
127 192 210
139 204 222
134 199 217
126 191 209
126 191 209
133 198 216
136 201 219
134 199 217
131 196 214
130 195 213
134 199 217
130 195 213
139 204 222
138 203 221
136 201 219
126 191 209
130 195 213
138 203 221
144 209 227
127 192 210
141 206 224
143 208 226
144 209 227
128 193 211
139 204 222
134 199 217
138 203 221
133 198 216
195 233 245
195 233 245
195 233 245
143 208 226
135 200 218
144 209 227
135 200 218
128 193 211
138 203 221
144 209 227
140 205 223
125 190 208
127 192 210
139 204 222
138 203 221
140 205 223
144 209 227
128 193 211
140 205 223
144 209 227
134 199 217
136 201 219
127 192 210
133 198 216
131 196 214
133 198 216
144 209 227
129 194 212
140 205 223
130 195 213
133 198 216
195 233 245
195 233 245
195 233 245
138 203 221
125 190 208
130 195 213
136 201 219
141 206 224
141 206 224
128 193 211
133 198 216
133 198 216
131 196 214
144 209 227
143 208 226
125 190 208
126 191 209
130 195 213
128 193 211
130 195 213
135 200 218
140 205 223
140 205 223
144 209 227
131 196 214
128 193 211
137 202 220
136 201 219
126 191 209
145 210 228
130 195 213
195 233 245
195 233 245
195 233 245
127 192 210
130 195 213
144 209 227
126 191 209
138 203 221
135 200 218
132 197 215
133 198 216
145 210 228
140 205 223
126 191 209
127 192 210
141 206 224
134 199 217
133 198 216
132 197 215
142 207 225
145 210 228
137 202 220
125 190 208
143 208 226
143 208 226
125 190 208
129 194 212
131 196 214
142 207 225
138 203 221
125 190 208
195 233 245
195 233 245
195 233 245
145 210 228
126 191 209
141 206 224
142 207 225
138 203 221
126 191 209
125 190 208
138 203 221
139 204 222
143 208 226
127 192 210
141 206 224
145 210 228
143 208 226
129 194 212
133 198 216
127 192 210
127 192 210
139 204 222
128 193 211
130 195 213
142 207 225
132 197 215
138 203 221
129 194 212
129 194 212
139 204 222
141 206 224
195 233 245
195 233 245
195 233 245
140 205 223
128 193 211
142 207 225
126 191 209
126 191 209
145 210 228
138 203 221
141 206 224
131 196 214
142 207 225
132 197 215
144 209 227
127 192 210
141 206 224
127 192 210
125 190 208
132 197 215
127 192 210
133 198 216
135 200 218
143 208 226
145 210 228
138 203 221
138 203 221
128 193 211
139 204 222
128 193 211
137 202 220
195 233 245
195 233 245
195 233 245
142 207 225
142 207 225
136 201 219
132 197 215
137 202 220
128 193 211
142 207 225
127 192 210
133 198 216
135 200 218
131 196 214
133 198 216
131 196 214
144 209 227
143 208 226
129 194 212
142 207 225
127 192 210
129 194 212
132 197 215
138 203 221
133 198 216
131 196 214
134 199 217
140 205 223
136 201 219
128 193 211
143 208 226
195 233 245
195 233 245
195 233 245
133 198 216
144 209 227
137 202 220
136 201 219
126 191 209
136 201 219
133 198 216
135 200 218
143 208 226
136 201 219
145 210 228
125 190 208
125 190 208
136 201 219
137 202 220
131 196 214
140 205 223
130 195 213
135 200 218
132 197 215
135 200 218
128 193 211
125 190 208
136 201 219
134 199 217
135 200 218
126 191 209
138 203 221
195 233 245
195 233 245
195 233 245
141 206 224
137 202 220
134 199 217
144 209 227
135 200 218
140 205 223
132 197 215
142 207 225
138 203 221
133 198 216
137 202 220
132 197 215
142 207 225
139 204 222
132 197 215
131 196 214
144 209 227
128 193 211
130 195 213
134 199 217
137 202 220
143 208 226
135 200 218
135 200 218
129 194 212
143 208 226
125 190 208
127 192 210
195 233 245
195 233 245
195 233 245
135 200 218
143 208 226
137 202 220
129 194 212
133 198 216
136 201 219
138 203 221
126 191 209
137 202 220
132 197 215
134 199 217
142 207 225
144 209 227
144 209 227
142 207 225
129 194 212
143 208 226
126 191 209
129 194 212
128 193 211
134 199 217
141 206 224
135 200 218
132 197 215
143 208 226
127 192 210
145 210 228
139 204 222
195 233 245
195 233 245
195 233 245
130 195 213
128 193 211
137 202 220
127 192 210
134 199 217
129 194 212
135 200 218
145 210 228
140 205 223
131 196 214
126 191 209
139 204 222
126 191 209
127 192 210
126 191 209
136 201 219
137 202 220
132 197 215
139 204 222
128 193 211
126 191 209
132 197 215
131 196 214
131 196 214
139 204 222
132 197 215
129 194 212
131 196 214
195 233 245
195 233 245
195 233 245
135 200 218
143 208 226
127 192 210
129 194 212
138 203 221
131 196 214
141 206 224
133 198 216
145 210 228
133 198 216
127 192 210
134 199 217
143 208 226
133 198 216
127 192 210
134 199 217
129 194 212
142 207 225
136 201 219
132 197 215
131 196 214
143 208 226
136 201 219
129 194 212
143 208 226
143 208 226
131 196 214
133 198 216
195 233 245
195 233 245
195 233 245
138 203 221
128 193 211
132 197 215
136 201 219
141 206 224
144 209 227
144 209 227
133 198 216
129 194 212
141 206 224
145 210 228
139 204 222
141 206 224
144 209 227
144 209 227
133 198 216
144 209 227
137 202 220
144 209 227
145 210 228
134 199 217
140 205 223
129 194 212
137 202 220
137 202 220
132 197 215
144 209 227
132 197 215
195 233 245
195 233 245
195 233 245
132 197 215
145 210 228
129 194 212
134 199 217
131 196 214
135 200 218
142 207 225
131 196 214
135 200 218
131 196 214
134 199 217
132 197 215
137 202 220
132 197 215
129 194 212
140 205 223
130 195 213
144 209 227
135 200 218
133 198 216
141 206 224
127 192 210
125 190 208
140 205 223
144 209 227
145 210 228
141 206 224
144 209 227
195 233 245
195 233 245
195 233 245
138 203 221
129 194 212
133 198 216
137 202 220
139 204 222
136 201 219
135 200 218
138 203 221
143 208 226
126 191 209
130 195 213
133 198 216
139 204 222
125 190 208
133 198 216
137 202 220
129 194 212
133 198 216
137 202 220
139 204 222
133 198 216
131 196 214
137 202 220
137 202 220
129 194 212
145 210 228
135 200 218
136 201 219
195 233 245
195 233 245
195 233 245
144 209 227
136 201 219
141 206 224
142 207 225
127 192 210
129 194 212
141 206 224
135 200 218
129 194 212
140 205 223
131 196 214
137 202 220
132 197 215
135 200 218
140 205 223
132 197 215
139 204 222
135 200 218
132 197 215
136 201 219
135 200 218
141 206 224
131 196 214
128 193 211
132 197 215
137 202 220
141 206 224
133 198 216
195 233 245
195 233 245
195 233 245
131 196 214
128 193 211
128 193 211
132 197 215
143 208 226
143 208 226
129 194 212
130 195 213
133 198 216
134 199 217
144 209 227
133 198 216
144 209 227
126 191 209
139 204 222
130 195 213
126 191 209
134 199 217
138 203 221
141 206 224
125 190 208
145 210 228
129 194 212
133 198 216
127 192 210
129 194 212
137 202 220
134 199 217
195 233 245
195 233 245
195 233 245
141 206 224
127 192 210
142 207 225
125 190 208
134 199 217
129 194 212
128 193 211
143 208 226
134 199 217
135 200 218
130 195 213
144 209 227
126 191 209
137 202 220
132 197 215
132 197 215
126 191 209
138 203 221
132 197 215
139 204 222
144 209 227
126 191 209
131 196 214
144 209 227
131 196 214
144 209 227
141 206 224
129 194 212
195 233 245
195 233 245
195 233 245
141 206 224
145 210 228
126 191 209
128 193 211
131 196 214
127 192 210
126 191 209
130 195 213
126 191 209
143 208 226
137 202 220
129 194 212
130 195 213
141 206 224
125 190 208
127 192 210
141 206 224
141 206 224
142 207 225
136 201 219
142 207 225
128 193 211
140 205 223
134 199 217
139 204 222
142 207 225
143 208 226
139 204 222
195 233 245
195 233 245
195 233 245
129 194 212
127 192 210
140 205 223
135 200 218
145 210 228
125 190 208
134 199 217
126 191 209
130 195 213
125 190 208
133 198 216
131 196 214
141 206 224
131 196 214
143 208 226
125 190 208
128 193 211
130 195 213
142 207 225
145 210 228
134 199 217
141 206 224
140 205 223
144 209 227
137 202 220
130 195 213
137 202 220
134 199 217
195 233 245
195 233 245
195 233 245
141 206 224
138 203 221
144 209 227
133 198 216
126 191 209
135 200 218
131 196 214
126 191 209
126 191 209
132 197 215
139 204 222
137 202 220
136 201 219
134 199 217
143 208 226
144 209 227
128 193 211
142 207 225
141 206 224
140 205 223
134 199 217
138 203 221
134 199 217
136 201 219
133 198 216
132 197 215
142 207 225
143 208 226
195 233 245
195 233 245
195 233 245
137 202 220
125 190 208
138 203 221
137 202 220
138 203 221
143 208 226
144 209 227
141 206 224
135 200 218
142 207 225
129 194 212
140 205 223
138 203 221
140 205 223
129 194 212
129 194 212
135 200 218
140 205 223
132 197 215
134 199 217
138 203 221
139 204 222
135 200 218
144 209 227
127 192 210
129 194 212
133 198 216
125 190 208
195 233 245
195 233 245
195 233 245
132 197 215
138 203 221
132 197 215
127 192 210
136 201 219
143 208 226
142 207 225
129 194 212
125 190 208
130 195 213
125 190 208
131 196 214
143 208 226
129 194 212
144 209 227
142 207 225
141 206 224
128 193 211
128 193 211
131 196 214
127 192 210
132 197 215
145 210 228
132 197 215
144 209 227
136 201 219
139 204 222
135 200 218
195 233 245
195 233 245
195 233 245
126 191 209
142 207 225
133 198 216
142 207 225
126 191 209
130 195 213
138 203 221
138 203 221
132 197 215
139 204 222
136 201 219
131 196 214
129 194 212
137 202 220
132 197 215
137 202 220
139 204 222
129 194 212
132 197 215
137 202 220
142 207 225
136 201 219
132 197 215
131 196 214
145 210 228
139 204 222
125 190 208
128 193 211
