P3
32 32
255
100 150 55
67 117 37
67 117 37
75 125 45
68 118 38
70 120 40
80 130 50
75 125 45
68 118 38
80 130 50
69 119 39
70 120 40
75 125 45
100 150 55
73 123 43
70 120 40
75 125 45
65 115 35
82 132 52
77 127 47
73 123 43
68 118 38
66 116 36
79 129 49
82 132 52
76 126 46
100 150 55
79 129 49
68 118 38
84 134 54
79 129 49
75 125 45
68 118 38
65 115 35
100 150 55
77 127 47
82 132 52
65 115 35
76 126 46
81 131 51
80 130 50
73 123 43
68 118 38
65 115 35
66 116 36
81 131 51
78 128 48
100 150 55
70 120 40
81 131 51
71 121 41
78 128 48
68 118 38
65 115 35
77 127 47
75 125 45
66 116 36
73 123 43
79 129 49
78 128 48
100 150 55
65 115 35
72 122 42
70 120 40
66 116 36
80 130 50
66 116 36
74 124 44
100 150 55
81 131 51
74 124 44
75 125 45
75 125 45
65 115 35
82 132 52
65 115 35
65 115 35
66 116 36
78 128 48
65 115 35
84 134 54
100 150 55
74 124 44
72 122 42
77 127 47
65 115 35
72 122 42
67 117 37
74 124 44
81 131 51
76 126 46
73 123 43
71 121 41
84 134 54
100 150 55
80 130 50
65 115 35
83 133 53
85 135 55
71 121 41
79 129 49
68 118 38
100 150 55
74 124 44
71 121 41
81 131 51
68 118 38
67 117 37
69 119 39
77 127 47
75 125 45
85 135 55
81 131 51
79 129 49
80 130 50
100 150 55
76 126 46
85 135 55
78 128 48
65 115 35
72 122 42
84 134 54
65 115 35
69 119 39
70 120 40
65 115 35
69 119 39
77 127 47
73 123 43
66 116 36
85 135 55
67 117 37
67 117 37
71 121 41
71 121 41
80 130 50
100 150 55
65 115 35
65 115 35
82 132 52
83 133 53
69 119 39
84 134 54
82 132 52
70 120 40
76 126 46
78 128 48
78 128 48
69 119 39
100 150 55
68 118 38
65 115 35
69 119 39
84 134 54
85 135 55
81 131 51
67 117 37
83 133 53
68 118 38
71 121 41
76 126 46
76 126 46
79 129 49
67 117 37
77 127 47
73 123 43
83 133 53
74 124 44
72 122 42
85 135 55
100 150 55
76 126 46
84 134 54
82 132 52
67 117 37
67 117 37
65 115 35
68 118 38
84 134 54
80 130 50
73 123 43
77 127 47
73 123 43
100 150 55
84 134 54
85 135 55
83 133 53
68 118 38
72 122 42
76 126 46
77 127 47
84 134 54
82 132 52
80 130 50
70 120 40
72 122 42
76 126 46
81 131 51
70 120 40
83 133 53
78 128 48
68 118 38
70 120 40
69 119 39
100 150 55
78 128 48
66 116 36
73 123 43
81 131 51
83 133 53
81 131 51
85 135 55
84 134 54
74 124 44
83 133 53
85 135 55
68 118 38
100 150 55
69 119 39
78 128 48
75 125 45
79 129 49
67 117 37
81 131 51
72 122 42
100 150 55
80 130 50
69 119 39
76 126 46
81 131 51
77 127 47
69 119 39
84 134 54
66 116 36
66 116 36
69 119 39
71 121 41
68 118 38
100 150 55
70 120 40
83 133 53
74 124 44
72 122 42
74 124 44
81 131 51
78 128 48
85 135 55
72 122 42
82 132 52
71 121 41
68 118 38
100 150 55
77 127 47
77 127 47
73 123 43
85 135 55
66 116 36
74 124 44
83 133 53
100 150 55
84 134 54
83 133 53
83 133 53
65 115 35
71 121 41
77 127 47
65 115 35
83 133 53
73 123 43
79 129 49
78 128 48
85 135 55
100 150 55
84 134 54
80 130 50
65 115 35
72 122 42
78 128 48
65 115 35
79 129 49
75 125 45
72 122 42
72 122 42
69 119 39
77 127 47
100 150 55
77 127 47
71 121 41
78 128 48
67 117 37
67 117 37
82 132 52
71 121 41
100 150 55
72 122 42
65 115 35
77 127 47
72 122 42
68 118 38
68 118 38
78 128 48
67 117 37
84 134 54
68 118 38
78 128 48
69 119 39
100 150 55
78 128 48
83 133 53
72 122 42
77 127 47
73 123 43
73 123 43
69 119 39
81 131 51
76 126 46
76 126 46
79 129 49
73 123 43
100 150 55
85 135 55
79 129 49
69 119 39
71 121 41
76 126 46
82 132 52
79 129 49
100 150 55
77 127 47
80 130 50
74 124 44
85 135 55
75 125 45
83 133 53
65 115 35
73 123 43
73 123 43
68 118 38
76 126 46
73 123 43
100 150 55
85 135 55
74 124 44
71 121 41
75 125 45
80 130 50
73 123 43
67 117 37
68 118 38
81 131 51
74 124 44
84 134 54
84 134 54
75 125 45
69 119 39
84 134 54
83 133 53
78 128 48
78 128 48
82 132 52
75 125 45
100 150 55
66 116 36
67 117 37
83 133 53
78 128 48
84 134 54
76 126 46
68 118 38
72 122 42
67 117 37
72 122 42
67 117 37
65 115 35
100 150 55
65 115 35
69 119 39
84 134 54
82 132 52
82 132 52
73 123 43
77 127 47
67 117 37
81 131 51
71 121 41
76 126 46
66 116 36
65 115 35
78 128 48
66 116 36
76 126 46
81 131 51
76 126 46
80 130 50
83 133 53
100 150 55
83 133 53
72 122 42
73 123 43
83 133 53
81 131 51
82 132 52
84 134 54
82 132 52
78 128 48
66 116 36
81 131 51
84 134 54
100 150 55
68 118 38
79 129 49
85 135 55
81 131 51
82 132 52
74 124 44
84 134 54
100 150 55
70 120 40
82 132 52
72 122 42
77 127 47
84 134 54
84 134 54
66 116 36
82 132 52
72 122 42
82 132 52
73 123 43
67 117 37
100 150 55
67 117 37
83 133 53
75 125 45
85 135 55
65 115 35
76 126 46
78 128 48
71 121 41
67 117 37
69 119 39
80 130 50
67 117 37
100 150 55
74 124 44
73 123 43
76 126 46
85 135 55
79 129 49
70 120 40
85 135 55
100 150 55
77 127 47
76 126 46
65 115 35
70 120 40
83 133 53
84 134 54
83 133 53
85 135 55
71 121 41
70 120 40
73 123 43
82 132 52
100 150 55
66 116 36
82 132 52
74 124 44
82 132 52
81 131 51
83 133 53
70 120 40
83 133 53
67 117 37
78 128 48
77 127 47
74 124 44
100 150 55
74 124 44
79 129 49
70 120 40
72 122 42
67 117 37
67 117 37
67 117 37
100 150 55
75 125 45
72 122 42
74 124 44
79 129 49
68 118 38
78 128 48
81 131 51
72 122 42
82 132 52
85 135 55
72 122 42
70 120 40
100 150 55
73 123 43
76 126 46
67 117 37
67 117 37
84 134 54
73 123 43
80 130 50
77 127 47
75 125 45
84 134 54
74 124 44
82 132 52
100 150 55
74 124 44
69 119 39
79 129 49
84 134 54
67 117 37
71 121 41
80 130 50
100 150 55
76 126 46
75 125 45
85 135 55
68 118 38
78 128 48
70 120 40
74 124 44
76 126 46
71 121 41
78 128 48
70 120 40
68 118 38
100 150 55
65 115 35
67 117 37
68 118 38
69 119 39
69 119 39
80 130 50
72 122 42
83 133 53
65 115 35
74 124 44
65 115 35
83 133 53
65 115 35
68 118 38
76 126 46
79 129 49
83 133 53
83 133 53
65 115 35
76 126 46
100 150 55
83 133 53
66 116 36
67 117 37
85 135 55
71 121 41
67 117 37
70 120 40
66 116 36
68 118 38
70 120 40
68 118 38
78 128 48
100 150 55
74 124 44
66 116 36
75 125 45
80 130 50
83 133 53
76 126 46
72 122 42
75 125 45
75 125 45
65 115 35
84 134 54
71 121 41
77 127 47
67 117 37
83 133 53
82 132 52
74 124 44
81 131 51
69 119 39
77 127 47
100 150 55
68 118 38
65 115 35
66 116 36
69 119 39
84 134 54
77 127 47
67 117 37
82 132 52
83 133 53
69 119 39
83 133 53
69 119 39
100 150 55
80 130 50
75 125 45
68 118 38
68 118 38
85 135 55
75 125 45
69 119 39
73 123 43
72 122 42
65 115 35
68 118 38
79 129 49
79 129 49
65 115 35
72 122 42
69 119 39
79 129 49
74 124 44
84 134 54
65 115 35
100 150 55
70 120 40
65 115 35
74 124 44
75 125 45
85 135 55
85 135 55
70 120 40
79 129 49
78 128 48
82 132 52
66 116 36
66 116 36
100 150 55
73 123 43
73 123 43
79 129 49
71 121 41
82 132 52
80 130 50
73 123 43
100 150 55
82 132 52
65 115 35
83 133 53
76 126 46
69 119 39
77 127 47
80 130 50
77 127 47
69 119 39
80 130 50
85 135 55
68 118 38
100 150 55
74 124 44
74 124 44
79 129 49
78 128 48
65 115 35
75 125 45
84 134 54
80 130 50
80 130 50
69 119 39
67 117 37
77 127 47
100 150 55
78 128 48
84 134 54
76 126 46
72 122 42
78 128 48
68 118 38
78 128 48
100 150 55
74 124 44
65 115 35
77 127 47
84 134 54
80 130 50
72 122 42
76 126 46
66 116 36
73 123 43
67 117 37
67 117 37
83 133 53
100 150 55
84 134 54
85 135 55
85 135 55
78 128 48
82 132 52
70 120 40
74 124 44
73 123 43
66 116 36
81 131 51
80 130 50
84 134 54
100 150 55
85 135 55
81 131 51
66 116 36
82 132 52
67 117 37
81 131 51
76 126 46
100 150 55
65 115 35
74 124 44
67 117 37
79 129 49
70 120 40
67 117 37
73 123 43
78 128 48
71 121 41
67 117 37
65 115 35
80 130 50
100 150 55
80 130 50
85 135 55
76 126 46
79 129 49
81 131 51
84 134 54
68 118 38
74 124 44
72 122 42
69 119 39
82 132 52
65 115 35
100 150 55
73 123 43
80 130 50
65 115 35
77 127 47
85 135 55
71 121 41
72 122 42
100 150 55
83 133 53
76 126 46
83 133 53
85 135 55
76 126 46
67 117 37
65 115 35
81 131 51
81 131 51
79 129 49
80 130 50
69 119 39
100 150 55
69 119 39
81 131 51
75 125 45
67 117 37
71 121 41
83 133 53
72 122 42
65 115 35
79 129 49
69 119 39
70 120 40
79 129 49
68 118 38
80 130 50
78 128 48
77 127 47
79 129 49
67 117 37
79 129 49
72 122 42
100 150 55
82 132 52
74 124 44
78 128 48
80 130 50
70 120 40
82 132 52
67 117 37
79 129 49
77 127 47
75 125 45
66 116 36
82 132 52
100 150 55
68 118 38
85 135 55
76 126 46
75 125 45
79 129 49
74 124 44
85 135 55
70 120 40
69 119 39
71 121 41
77 127 47
71 121 41
73 123 43
73 123 43
72 122 42
68 118 38
66 116 36
77 127 47
65 115 35
82 132 52
100 150 55
73 123 43
71 121 41
82 132 52
72 122 42
66 116 36
65 115 35
69 119 39
72 122 42
66 116 36
79 129 49
68 118 38
82 132 52
100 150 55
76 126 46
79 129 49
66 116 36
69 119 39
74 124 44
70 120 40
72 122 42
100 150 55
78 128 48
68 118 38
66 116 36
74 124 44
82 132 52
74 124 44
80 130 50
76 126 46
76 126 46
84 134 54
65 115 35
85 135 55
100 150 55
81 131 51
78 128 48
79 129 49
67 117 37
77 127 47
73 123 43
81 131 51
84 134 54
67 117 37
77 127 47
73 123 43
74 124 44
100 150 55
82 132 52
79 129 49
66 116 36
83 133 53
68 118 38
81 131 51
75 125 45
100 150 55
80 130 50
68 118 38
81 131 51
83 133 53
70 120 40
77 127 47
74 124 44
82 132 52
76 126 46
81 131 51
68 118 38
83 133 53
100 150 55
80 130 50
65 115 35
73 123 43
66 116 36
82 132 52
82 132 52
77 127 47
69 119 39
76 126 46
76 126 46
78 128 48
65 115 35
100 150 55
77 127 47
66 116 36
74 124 44
79 129 49
81 131 51
70 120 40
75 125 45
100 150 55
66 116 36
75 125 45
83 133 53
69 119 39
72 122 42
81 131 51
71 121 41
67 117 37
76 126 46
81 131 51
70 120 40
77 127 47
100 150 55
67 117 37
78 128 48
78 128 48
81 131 51
71 121 41
84 134 54
84 134 54
67 117 37
68 118 38
77 127 47
67 117 37
83 133 53
100 150 55
65 115 35
73 123 43
72 122 42
83 133 53
65 115 35
83 133 53
73 123 43
100 150 55
78 128 48
76 126 46
75 125 45
82 132 52
75 125 45
66 116 36
71 121 41
67 117 37
85 135 55
80 130 50
72 122 42
73 123 43
100 150 55
74 124 44
74 124 44
81 131 51
83 133 53
74 124 44
71 121 41
76 126 46
68 118 38
83 133 53
84 134 54
81 131 51
72 122 42
76 126 46
81 131 51
83 133 53
80 130 50
79 129 49
81 131 51
73 123 43
69 119 39
100 150 55
74 124 44
67 117 37
68 118 38
85 135 55
82 132 52
83 133 53
78 128 48
65 115 35
69 119 39
82 132 52
81 131 51
74 124 44
100 150 55
76 126 46
85 135 55
76 126 46
65 115 35
76 126 46
77 127 47
82 132 52
83 133 53
81 131 51
77 127 47
80 130 50
75 125 45
85 135 55
71 121 41
73 123 43
73 123 43
71 121 41
85 135 55
85 135 55
69 119 39
100 150 55
65 115 35
71 121 41
78 128 48
84 134 54
78 128 48
74 124 44
84 134 54
67 117 37
79 129 49
66 116 36
65 115 35
83 133 53
100 150 55
69 119 39
84 134 54
68 118 38
79 129 49
69 119 39
81 131 51
73 123 43
67 117 37
