P3
32 32
255
148 156 164
152 160 168
154 162 170
163 171 179
160 168 176
155 163 171
167 175 183
158 166 174
157 165 173
156 164 172
165 173 181
159 167 175
151 159 167
158 166 174
164 172 180
161 169 177
159 167 175
149 157 165
164 172 180
163 171 179
159 167 175
167 175 183
168 176 184
154 162 170
149 157 165
166 174 182
149 157 165
159 167 175
157 165 173
150 158 166
165 173 181
156 164 172
154 162 170
159 167 175
163 171 179
153 161 169
157 165 173
166 174 182
165 173 181
168 176 184
163 171 179
168 176 184
153 161 169
156 164 172
157 165 173
167 175 183
159 167 175
156 164 172
165 173 181
164 172 180
166 174 182
169 177 185
169 177 185
156 164 172
163 171 179
152 160 168
154 162 170
150 158 166
163 171 179
165 173 181
155 163 171
158 166 174
150 158 166
157 165 173
163 171 179
161 169 177
159 167 175
166 174 182
170 178 186
165 173 181
158 166 174
167 175 183
159 167 175
171 179 187
154 162 170
165 173 181
167 175 183
166 174 182
171 179 187
157 165 173
160 168 176
168 176 184
168 176 184
167 175 183
158 166 174
171 179 187
161 169 177
171 179 187
169 177 185
162 170 178
171 179 187
158 166 174
155 163 171
152 160 168
164 172 180
156 164 172
171 179 187
170 178 186
169 177 185
173 181 189
163 171 179
170 178 186
162 170 178
155 163 171
162 170 178
154 162 170
166 174 182
154 162 170
158 166 174
174 182 190
161 169 177
165 173 181
156 164 172
162 170 178
160 168 176
164 172 180
166 174 182
159 167 175
154 162 170
167 175 183
174 182 190
163 171 179
171 179 187
161 169 177
169 177 185
174 182 190
166 174 182
161 169 177
162 170 178
174 182 190
173 181 189
175 183 191
175 183 191
176 184 192
172 180 188
169 177 185
163 171 179
171 179 187
163 171 179
162 170 178
162 170 178
165 173 181
170 178 186
174 182 190
159 167 175
164 172 180
160 168 176
171 179 187
170 178 186
157 165 173
169 177 185
167 175 183
172 180 188
158 166 174
176 184 192
156 164 172
175 183 191
157 165 173
163 171 179
164 172 180
167 175 183
163 171 179
172 180 188
164 172 180
161 169 177
166 174 182
171 179 187
161 169 177
170 178 186
172 180 188
161 169 177
176 184 192
177 185 193
173 181 189
165 173 181
168 176 184
173 181 189
178 186 194
162 170 178
164 172 180
174 182 190
175 183 191
171 179 187
162 170 178
162 170 178
163 171 179
161 169 177
175 183 191
178 186 194
174 182 190
172 180 188
164 172 180
167 175 183
180 188 196
177 185 193
161 169 177
175 183 191
167 175 183
175 183 191
175 183 191
176 184 192
160 168 176
163 171 179
160 168 176
179 187 195
175 183 191
173 181 189
160 168 176
176 184 192
169 177 185
165 173 181
179 187 195
177 185 193
160 168 176
172 180 188
172 180 188
172 180 188
170 178 186
162 170 178
178 186 194
164 172 180
176 184 192
163 171 179
177 185 193
182 190 198
180 188 196
173 181 189
181 189 197
180 188 196
167 175 183
178 186 194
169 177 185
167 175 183
171 179 187
173 181 189
178 186 194
176 184 192
175 183 191
167 175 183
172 180 188
175 183 191
165 173 181
163 171 179
172 180 188
172 180 188
178 186 194
171 179 187
168 176 184
170 178 186
167 175 183
171 179 187
167 175 183
167 175 183
179 187 195
173 181 189
182 190 198
166 174 182
154 162 170
149 157 165
149 157 165
152 160 168
162 170 178
150 158 166
158 166 174
162 170 178
167 175 183
162 170 178
156 164 172
158 166 174
164 172 180
166 174 182
168 176 184
152 160 168
160 168 176
153 161 169
149 157 165
163 171 179
161 169 177
154 162 170
151 159 167
156 164 172
152 160 168
159 167 175
160 168 176
164 172 180
158 166 174
149 157 165
156 164 172
169 177 185
161 169 177
169 177 185
158 166 174
161 169 177
154 162 170
155 163 171
169 177 185
150 158 166
161 169 177
166 174 182
162 170 178
151 159 167
151 159 167
166 174 182
162 170 178
158 166 174
160 168 176
151 159 167
163 171 179
162 170 178
159 167 175
154 162 170
154 162 170
150 158 166
168 176 184
163 171 179
170 178 186
153 161 169
160 168 176
164 172 180
154 162 170
169 177 185
157 165 173
161 169 177
171 179 187
170 178 186
162 170 178
160 168 176
172 180 188
159 167 175
159 167 175
152 160 168
156 164 172
169 177 185
166 174 182
154 162 170
159 167 175
160 168 176
171 179 187
156 164 172
158 166 174
161 169 177
161 169 177
169 177 185
161 169 177
158 166 174
166 174 182
159 167 175
166 174 182
163 171 179
157 165 173
167 175 183
163 171 179
172 180 188
166 174 182
170 178 186
171 179 187
166 174 182
171 179 187
168 176 184
173 181 189
155 163 171
155 163 171
160 168 176
159 167 175
163 171 179
154 162 170
161 169 177
161 169 177
170 178 186
159 167 175
165 173 181
158 166 174
160 168 176
161 169 177
169 177 185
162 170 178
163 171 179
154 162 170
166 174 182
158 166 174
156 164 172
168 176 184
163 171 179
155 163 171
168 176 184
165 173 181
162 170 178
161 169 177
174 182 190
161 169 177
172 180 188
167 175 183
161 169 177
161 169 177
161 169 177
164 172 180
158 166 174
168 176 184
176 184 192
162 170 178
163 171 179
156 164 172
175 183 191
161 169 177
170 178 186
167 175 183
161 169 177
166 174 182
174 182 190
164 172 180
163 171 179
167 175 183
161 169 177
166 174 182
172 180 188
163 171 179
170 178 186
162 170 178
172 180 188
178 186 194
172 180 188
160 168 176
167 175 183
168 176 184
168 176 184
178 186 194
178 186 194
158 166 174
160 168 176
165 173 181
163 171 179
176 184 192
158 166 174
164 172 180
175 183 191
160 168 176
174 182 190
161 169 177
165 173 181
158 166 174
162 170 178
175 183 191
166 174 182
168 176 184
177 185 193
162 170 178
164 172 180
173 181 189
170 178 186
178 186 194
176 184 192
178 186 194
178 186 194
180 188 196
172 180 188
165 173 181
172 180 188
169 177 185
176 184 192
174 182 190
172 180 188
164 172 180
167 175 183
170 178 186
162 170 178
170 178 186
171 179 187
179 187 195
173 181 189
174 182 190
172 180 188
169 177 185
177 185 193
173 181 189
176 184 192
177 185 193
174 182 190
179 187 195
171 179 187
165 173 181
176 184 192
166 174 182
173 181 189
167 175 183
174 182 190
169 177 185
182 190 198
162 170 178
177 185 193
174 182 190
173 181 189
168 176 184
170 178 186
176 184 192
171 179 187
182 190 198
172 180 188
180 188 196
169 177 185
171 179 187
176 184 192
170 178 186
163 171 179
178 186 194
167 175 183
168 176 184
162 170 178
167 175 183
166 174 182
177 185 193
173 181 189
175 183 191
166 174 182
158 166 174
148 156 164
155 163 171
162 170 178
149 157 165
167 175 183
164 172 180
158 166 174
158 166 174
151 159 167
149 157 165
150 158 166
154 162 170
149 157 165
151 159 167
151 159 167
164 172 180
155 163 171
165 173 181
160 168 176
150 158 166
160 168 176
153 161 169
150 158 166
163 171 179
148 156 164
153 161 169
154 162 170
162 170 178
165 173 181
168 176 184
150 158 166
169 177 185
158 166 174
168 176 184
163 171 179
152 160 168
156 164 172
158 166 174
170 178 186
162 170 178
169 177 185
153 161 169
154 162 170
170 178 186
164 172 180
170 178 186
155 163 171
168 176 184
151 159 167
158 166 174
158 166 174
165 173 181
150 158 166
166 174 182
169 177 185
166 174 182
154 162 170
169 177 185
151 159 167
164 172 180
159 167 175
166 174 182
166 174 182
156 164 172
153 161 169
156 164 172
170 178 186
155 163 171
163 171 179
153 161 169
162 170 178
171 179 187
169 177 185
152 160 168
155 163 171
160 168 176
153 161 169
155 163 171
153 161 169
152 160 168
172 180 188
161 169 177
164 172 180
160 168 176
164 172 180
158 166 174
170 178 186
165 173 181
172 180 188
170 178 186
170 178 186
159 167 175
159 167 175
158 166 174
156 164 172
156 164 172
164 172 180
154 162 170
173 181 189
163 171 179
155 163 171
156 164 172
160 168 176
154 162 170
173 181 189
163 171 179
172 180 188
154 162 170
166 174 182
164 172 180
168 176 184
155 163 171
172 180 188
155 163 171
168 176 184
174 182 190
157 165 173
159 167 175
166 174 182
169 177 185
161 169 177
158 166 174
157 165 173
168 176 184
158 166 174
157 165 173
168 176 184
167 175 183
174 182 190
156 164 172
174 182 190
156 164 172
160 168 176
168 176 184
175 183 191
173 181 189
158 166 174
168 176 184
165 173 181
159 167 175
165 173 181
173 181 189
156 164 172
165 173 181
159 167 175
173 181 189
165 173 181
162 170 178
168 176 184
158 166 174
176 184 192
160 168 176
165 173 181
160 168 176
158 166 174
174 182 190
176 184 192
169 177 185
174 182 190
174 182 190
176 184 192
164 172 180
161 169 177
169 177 185
171 179 187
172 180 188
176 184 192
163 171 179
160 168 176
175 183 191
175 183 191
170 178 186
174 182 190
166 174 182
164 172 180
168 176 184
162 170 178
172 180 188
168 176 184
166 174 182
172 180 188
164 172 180
178 186 194
173 181 189
159 167 175
171 179 187
170 178 186
178 186 194
168 176 184
159 167 175
178 186 194
170 178 186
176 184 192
174 182 190
165 173 181
162 170 178
174 182 190
169 177 185
177 185 193
170 178 186
179 187 195
164 172 180
163 171 179
175 183 191
166 174 182
168 176 184
169 177 185
160 168 176
178 186 194
173 181 189
173 181 189
165 173 181
162 170 178
168 176 184
161 169 177
172 180 188
167 175 183
169 177 185
170 178 186
180 188 196
161 169 177
178 186 194
178 186 194
162 170 178
182 190 198
169 177 185
178 186 194
164 172 180
164 172 180
166 174 182
179 187 195
177 185 193
180 188 196
162 170 178
171 179 187
172 180 188
164 172 180
166 174 182
171 179 187
176 184 192
166 174 182
174 182 190
164 172 180
180 188 196
170 178 186
175 183 191
169 177 185
169 177 185
174 182 190
176 184 192
178 186 194
166 174 182
182 190 198
179 187 195
156 164 172
149 157 165
157 165 173
150 158 166
164 172 180
167 175 183
160 168 176
154 162 170
166 174 182
162 170 178
165 173 181
167 175 183
155 163 171
149 157 165
168 176 184
160 168 176
157 165 173
150 158 166
148 156 164
165 173 181
164 172 180
158 166 174
164 172 180
166 174 182
160 168 176
155 163 171
168 176 184
156 164 172
158 166 174
157 165 173
156 164 172
160 168 176
166 174 182
151 159 167
163 171 179
158 166 174
151 159 167
170 178 186
159 167 175
160 168 176
151 159 167
168 176 184
164 172 180
158 166 174
151 159 167
160 168 176
155 163 171
156 164 172
158 166 174
150 158 166
155 163 171
163 171 179
154 162 170
153 161 169
151 159 167
168 176 184
155 163 171
161 169 177
160 168 176
159 167 175
170 178 186
154 162 170
167 175 183
159 167 175
157 165 173
156 164 172
155 163 171
158 166 174
161 169 177
164 172 180
163 171 179
161 169 177
165 173 181
162 170 178
167 175 183
170 178 186
168 176 184
159 167 175
169 177 185
154 162 170
153 161 169
166 174 182
172 180 188
162 170 178
155 163 171
168 176 184
159 167 175
164 172 180
172 180 188
167 175 183
154 162 170
162 170 178
161 169 177
152 160 168
163 171 179
170 178 186
154 162 170
159 167 175
156 164 172
171 179 187
161 169 177
173 181 189
171 179 187
171 179 187
163 171 179
170 178 186
174 182 190
169 177 185
162 170 178
157 165 173
155 163 171
173 181 189
168 176 184
162 170 178
161 169 177
159 167 175
158 166 174
161 169 177
159 167 175
164 172 180
172 180 188
165 173 181
160 168 176
169 177 185
163 171 179
154 162 170
154 162 170
167 175 183
176 184 192
174 182 190
173 181 189
167 175 183
160 168 176
156 164 172
171 179 187
158 166 174
173 181 189
159 167 175
156 164 172
164 172 180
172 180 188
169 177 185
160 168 176
173 181 189
169 177 185
160 168 176
173 181 189
157 165 173
170 178 186
161 169 177
169 177 185
170 178 186
176 184 192
169 177 185
175 183 191
173 181 189
168 176 184
158 166 174
163 171 179
164 172 180
174 182 190
165 173 181
173 181 189
169 177 185
164 172 180
169 177 185
172 180 188
171 179 187
171 179 187
162 170 178
167 175 183
159 167 175
164 172 180
176 184 192
173 181 189
162 170 178
164 172 180
168 176 184
159 167 175
163 171 179
161 169 177
177 185 193
178 186 194
173 181 189
163 171 179
161 169 177
169 177 185
170 178 186
159 167 175
177 185 193
168 176 184
173 181 189
176 184 192
172 180 188
172 180 188
168 176 184
178 186 194
174 182 190
170 178 186
161 169 177
170 178 186
164 172 180
168 176 184
169 177 185
177 185 193
171 179 187
167 175 183
161 169 177
178 186 194
174 182 190
170 178 186
162 170 178
160 168 176
162 170 178
165 173 181
177 185 193
168 176 184
160 168 176
166 174 182
163 171 179
180 188 196
161 169 177
171 179 187
174 182 190
176 184 192
176 184 192
168 176 184
177 185 193
168 176 184
169 177 185
169 177 185
175 183 191
182 190 198
162 170 178
177 185 193
182 190 198
172 180 188
172 180 188
181 189 197
176 184 192
178 186 194
171 179 187
177 185 193
169 177 185
171 179 187
170 178 186
177 185 193
175 183 191
169 177 185
177 185 193
182 190 198
180 188 196
169 177 185
169 177 185
164 172 180
171 179 187
