P3
32 32
255
92 95 98
92 95 98
92 95 98
92 95 98
92 95 98
92 95 98
92 95 98
92 95 98
92 95 98
92 95 98
92 95 98
92 95 98
92 95 98
92 95 98
92 95 98
92 95 98
92 95 98
92 95 98
92 95 98
92 95 98
92 95 98
92 95 98
92 95 98
92 95 98
92 95 98
92 95 98
92 95 98
92 95 98
92 95 98
92 95 98
92 95 98
92 95 98
92 95 98
154 159 162
148 153 156
144 149 152
147 152 155
135 140 143
144 149 152
153 158 161
140 145 148
152 157 160
136 141 144
152 157 160
141 146 149
146 151 154
142 147 150
149 154 157
92 95 98
144 149 152
135 140 143
153 158 161
146 151 154
138 143 146
153 158 161
148 153 156
148 153 156
153 158 161
142 147 150
148 153 156
143 148 151
146 151 154
135 140 143
154 159 162
92 95 98
154 159 162
137 142 145
136 141 144
154 159 162
139 144 147
138 143 146
150 155 158
140 145 148
153 158 161
148 153 156
143 148 151
153 158 161
143 148 151
141 146 149
139 144 147
92 95 98
148 153 156
147 152 155
135 140 143
137 142 145
145 150 153
141 146 149
148 153 156
136 141 144
155 160 163
151 156 159
150 155 158
149 154 157
151 156 159
145 150 153
150 155 158
92 95 98
138 143 146
137 142 145
143 148 151
143 148 151
140 145 148
151 156 159
143 148 151
141 146 149
140 145 148
148 153 156
149 154 157
145 150 153
144 149 152
151 156 159
139 144 147
92 95 98
137 142 145
136 141 144
151 156 159
154 159 162
155 160 163
151 156 159
138 143 146
147 152 155
144 149 152
135 140 143
154 159 162
143 148 151
144 149 152
135 140 143
145 150 153
92 95 98
154 159 162
147 152 155
149 154 157
140 145 148
154 159 162
151 156 159
142 147 150
152 157 160
138 143 146
150 155 158
153 158 161
153 158 161
148 153 156
137 142 145
147 152 155
92 95 98
147 152 155
138 143 146
146 151 154
149 154 157
149 154 157
151 156 159
152 157 160
143 148 151
155 160 163
151 156 159
155 160 163
139 144 147
153 158 161
135 140 143
152 157 160
92 95 98
138 143 146
140 145 148
147 152 155
153 158 161
137 142 145
154 159 162
148 153 156
141 146 149
150 155 158
154 159 162
150 155 158
139 144 147
154 159 162
141 146 149
155 160 163
92 95 98
143 148 151
150 155 158
152 157 160
141 146 149
144 149 152
151 156 159
149 154 157
137 142 145
151 156 159
140 145 148
141 146 149
137 142 145
152 157 160
137 142 145
155 160 163
92 95 98
153 158 161
148 153 156
149 154 157
142 147 150
146 151 154
150 155 158
137 142 145
148 153 156
145 150 153
140 145 148
155 160 163
151 156 159
136 141 144
147 152 155
145 150 153
92 95 98
151 156 159
148 153 156
152 157 160
137 142 145
138 143 146
146 151 154
150 155 158
143 148 151
147 152 155
144 149 152
136 141 144
152 157 160
148 153 156
145 150 153
145 150 153
92 95 98
154 159 162
146 151 154
142 147 150
141 146 149
147 152 155
148 153 156
151 156 159
148 153 156
148 153 156
139 144 147
151 156 159
139 144 147
151 156 159
153 158 161
136 141 144
92 95 98
151 156 159
148 153 156
142 147 150
139 144 147
140 145 148
153 158 161
155 160 163
142 147 150
153 158 161
141 146 149
150 155 158
136 141 144
148 153 156
140 145 148
135 140 143
92 95 98
150 155 158
143 148 151
153 158 161
145 150 153
140 145 148
139 144 147
136 141 144
138 143 146
152 157 160
139 144 147
145 150 153
155 160 163
151 156 159
146 151 154
147 152 155
92 95 98
142 147 150
154 159 162
136 141 144
155 160 163
138 143 146
140 145 148
141 146 149
136 141 144
147 152 155
155 160 163
143 148 151
140 145 148
153 158 161
150 155 158
155 160 163
92 95 98
138 143 146
151 156 159
144 149 152
143 148 151
135 140 143
146 151 154
153 158 161
146 151 154
146 151 154
139 144 147
143 148 151
136 141 144
142 147 150
135 140 143
146 151 154
92 95 98
150 155 158
136 141 144
149 154 157
150 155 158
139 144 147
135 140 143
151 156 159
145 150 153
136 141 144
151 156 159
154 159 162
140 145 148
151 156 159
151 156 159
140 145 148
92 95 98
139 144 147
137 142 145
151 156 159
155 160 163
136 141 144
139 144 147
149 154 157
152 157 160
135 140 143
145 150 153
143 148 151
155 160 163
153 158 161
140 145 148
149 154 157
92 95 98
144 149 152
137 142 145
146 151 154
152 157 160
135 140 143
139 144 147
138 143 146
138 143 146
155 160 163
155 160 163
142 147 150
139 144 147
148 153 156
148 153 156
151 156 159
92 95 98
154 159 162
140 145 148
152 157 160
140 145 148
139 144 147
146 151 154
140 145 148
146 151 154
142 147 150
153 158 161
149 154 157
149 154 157
147 152 155
152 157 160
147 152 155
92 95 98
137 142 145
142 147 150
152 157 160
149 154 157
140 145 148
144 149 152
137 142 145
155 160 163
155 160 163
148 153 156
135 140 143
136 141 144
153 158 161
144 149 152
138 143 146
92 95 98
149 154 157
148 153 156
136 141 144
147 152 155
143 148 151
144 149 152
142 147 150
153 158 161
152 157 160
155 160 163
144 149 152
137 142 145
145 150 153
144 149 152
146 151 154
92 95 98
143 148 151
145 150 153
137 142 145
140 145 148
151 156 159
137 142 145
145 150 153
145 150 153
138 143 146
152 157 160
141 146 149
147 152 155
146 151 154
138 143 146
149 154 157
92 95 98
149 154 157
141 146 149
135 140 143
154 159 162
151 156 159
155 160 163
143 148 151
149 154 157
155 160 163
154 159 162
152 157 160
140 145 148
155 160 163
155 160 163
144 149 152
92 95 98
136 141 144
152 157 160
149 154 157
142 147 150
142 147 150
154 159 162
147 152 155
147 152 155
138 143 146
146 151 154
143 148 151
146 151 154
138 143 146
151 156 159
141 146 149
92 95 98
141 146 149
146 151 154
143 148 151
139 144 147
144 149 152
147 152 155
143 148 151
143 148 151
136 141 144
143 148 151
140 145 148
152 157 160
140 145 148
139 144 147
145 150 153
92 95 98
142 147 150
151 156 159
145 150 153
149 154 157
145 150 153
142 147 150
146 151 154
151 156 159
149 154 157
143 148 151
151 156 159
139 144 147
146 151 154
153 158 161
145 150 153
92 95 98
148 153 156
139 144 147
155 160 163
144 149 152
146 151 154
140 145 148
136 141 144
144 149 152
144 149 152
140 145 148
140 145 148
154 159 162
148 153 156
150 155 158
142 147 150
92 95 98
136 141 144
139 144 147
138 143 146
142 147 150
140 145 148
148 153 156
137 142 145
155 160 163
155 160 163
148 153 156
145 150 153
136 141 144
152 157 160
139 144 147
153 158 161
92 95 98
92 95 98
92 95 98
92 95 98
92 95 98
92 95 98
92 95 98
92 95 98
92 95 98
92 95 98
92 95 98
92 95 98
92 95 98
92 95 98
92 95 98
92 95 98
92 95 98
92 95 98
92 95 98
92 95 98
92 95 98
92 95 98
92 95 98
92 95 98
92 95 98
92 95 98
92 95 98
92 95 98
92 95 98
92 95 98
92 95 98
92 95 98
140 145 148
143 148 151
136 141 144
135 140 143
147 152 155
146 151 154
141 146 149
150 155 158
92 95 98
147 152 155
136 141 144
149 154 157
139 144 147
143 148 151
153 158 161
154 159 162
142 147 150
146 151 154
146 151 154
136 141 144
135 140 143
136 141 144
146 151 154
145 150 153
92 95 98
137 142 145
140 145 148
155 160 163
140 145 148
147 152 155
149 154 157
142 147 150
149 154 157
144 149 152
155 160 163
153 158 161
135 140 143
147 152 155
145 150 153
143 148 151
92 95 98
136 141 144
137 142 145
150 155 158
148 153 156
144 149 152
149 154 157
147 152 155
138 143 146
136 141 144
137 142 145
143 148 151
139 144 147
155 160 163
147 152 155
139 144 147
92 95 98
146 151 154
140 145 148
144 149 152
141 146 149
142 147 150
145 150 153
144 149 152
153 158 161
149 154 157
155 160 163
151 156 159
144 149 152
135 140 143
153 158 161
151 156 159
92 95 98
138 143 146
142 147 150
154 159 162
154 159 162
151 156 159
153 158 161
141 146 149
144 149 152
148 153 156
151 156 159
138 143 146
144 149 152
141 146 149
138 143 146
150 155 158
92 95 98
150 155 158
155 160 163
144 149 152
141 146 149
135 140 143
137 142 145
141 146 149
147 152 155
149 154 157
152 157 160
154 159 162
145 150 153
154 159 162
137 142 145
138 143 146
92 95 98
142 147 150
142 147 150
135 140 143
147 152 155
149 154 157
140 145 148
136 141 144
149 154 157
155 160 163
135 140 143
148 153 156
147 152 155
141 146 149
155 160 163
147 152 155
92 95 98
139 144 147
155 160 163
149 154 157
135 140 143
143 148 151
144 149 152
135 140 143
135 140 143
135 140 143
141 146 149
140 145 148
154 159 162
154 159 162
151 156 159
145 150 153
92 95 98
147 152 155
155 160 163
137 142 145
155 160 163
137 142 145
138 143 146
138 143 146
145 150 153
154 159 162
151 156 159
142 147 150
155 160 163
144 149 152
150 155 158
140 145 148
92 95 98
140 145 148
143 148 151
140 145 148
155 160 163
144 149 152
138 143 146
151 156 159
153 158 161
142 147 150
155 160 163
146 151 154
142 147 150
155 160 163
138 143 146
150 155 158
92 95 98
145 150 153
137 142 145
155 160 163
142 147 150
153 158 161
148 153 156
143 148 151
136 141 144
151 156 159
139 144 147
137 142 145
148 153 156
137 142 145
135 140 143
147 152 155
92 95 98
136 141 144
147 152 155
148 153 156
145 150 153
146 151 154
146 151 154
137 142 145
144 149 152
138 143 146
139 144 147
147 152 155
137 142 145
147 152 155
151 156 159
145 150 153
92 95 98
135 140 143
138 143 146
145 150 153
142 147 150
151 156 159
153 158 161
151 156 159
148 153 156
135 140 143
139 144 147
138 143 146
140 145 148
136 141 144
138 143 146
151 156 159
92 95 98
143 148 151
140 145 148
141 146 149
142 147 150
145 150 153
140 145 148
148 153 156
154 159 162
135 140 143
145 150 153
138 143 146
149 154 157
135 140 143
140 145 148
144 149 152
92 95 98
149 154 157
141 146 149
147 152 155
154 159 162
145 150 153
139 144 147
145 150 153
138 143 146
152 157 160
135 140 143
145 150 153
142 147 150
143 148 151
152 157 160
143 148 151
92 95 98
143 148 151
140 145 148
150 155 158
142 147 150
145 150 153
137 142 145
140 145 148
151 156 159
146 151 154
146 151 154
142 147 150
141 146 149
149 154 157
136 141 144
148 153 156
92 95 98
150 155 158
137 142 145
147 152 155
150 155 158
147 152 155
153 158 161
152 157 160
139 144 147
151 156 159
137 142 145
146 151 154
145 150 153
150 155 158
141 146 149
145 150 153
92 95 98
137 142 145
138 143 146
141 146 149
151 156 159
146 151 154
137 142 145
145 150 153
146 151 154
136 141 144
151 156 159
143 148 151
155 160 163
152 157 160
139 144 147
144 149 152
92 95 98
142 147 150
151 156 159
147 152 155
141 146 149
140 145 148
149 154 157
144 149 152
145 150 153
143 148 151
145 150 153
147 152 155
142 147 150
147 152 155
151 156 159
136 141 144
92 95 98
135 140 143
139 144 147
138 143 146
146 151 154
151 156 159
152 157 160
139 144 147
148 153 156
148 153 156
135 140 143
148 153 156
151 156 159
145 150 153
153 158 161
143 148 151
92 95 98
149 154 157
152 157 160
137 142 145
155 160 163
149 154 157
139 144 147
153 158 161
144 149 152
149 154 157
151 156 159
142 147 150
135 140 143
146 151 154
137 142 145
155 160 163
92 95 98
149 154 157
138 143 146
154 159 162
147 152 155
135 140 143
153 158 161
154 159 162
145 150 153
146 151 154
155 160 163
148 153 156
139 144 147
135 140 143
148 153 156
135 140 143
92 95 98
137 142 145
155 160 163
149 154 157
150 155 158
148 153 156
137 142 145
146 151 154
151 156 159
142 147 150
150 155 158
152 157 160
135 140 143
145 150 153
138 143 146
136 141 144
92 95 98
136 141 144
143 148 151
136 141 144
142 147 150
154 159 162
151 156 159
146 151 154
151 156 159
153 158 161
147 152 155
143 148 151
150 155 158
146 151 154
148 153 156
143 148 151
92 95 98
150 155 158
151 156 159
154 159 162
146 151 154
144 149 152
139 144 147
147 152 155
147 152 155
147 152 155
138 143 146
140 145 148
140 145 148
135 140 143
154 159 162
135 140 143
92 95 98
153 158 161
138 143 146
138 143 146
148 153 156
147 152 155
149 154 157
148 153 156
142 147 150
144 149 152
153 158 161
152 157 160
136 141 144
149 154 157
151 156 159
139 144 147
92 95 98
141 146 149
151 156 159
140 145 148
149 154 157
140 145 148
146 151 154
136 141 144
153 158 161
151 156 159
145 150 153
150 155 158
150 155 158
145 150 153
140 145 148
150 155 158
92 95 98
146 151 154
135 140 143
153 158 161
143 148 151
145 150 153
151 156 159
144 149 152
136 141 144
138 143 146
147 152 155
136 141 144
146 151 154
143 148 151
146 151 154
153 158 161
92 95 98
154 159 162
147 152 155
154 159 162
139 144 147
148 153 156
142 147 150
137 142 145
141 146 149
136 141 144
141 146 149
153 158 161
136 141 144
155 160 163
153 158 161
152 157 160
92 95 98
138 143 146
153 158 161
145 150 153
149 154 157
154 159 162
151 156 159
139 144 147
