P3
32 32
255
100 61 32
100 61 32
100 61 32
100 61 32
100 61 32
100 61 32
100 61 32
100 61 32
100 61 32
100 61 32
100 61 32
100 61 32
100 61 32
100 61 32
100 61 32
100 61 32
100 61 32
100 61 32
100 61 32
100 61 32
100 61 32
100 61 32
100 61 32
100 61 32
100 61 32
100 61 32
100 61 32
100 61 32
100 61 32
100 61 32
100 61 32
100 61 32
100 61 32
162 107 52
165 110 55
167 112 64
148 93 52
150 95 57
161 106 64
170 115 65
173 118 63
168 113 58
167 112 64
148 93 52
145 90 52
158 103 61
171 116 66
171 116 61
100 61 32
156 101 53
156 101 60
147 92 54
158 103 61
163 108 58
166 111 55
170 115 60
171 116 68
158 103 62
158 103 65
164 109 67
163 108 58
175 120 64
165 110 56
156 101 53
100 61 32
171 116 60
164 109 56
169 114 68
146 91 52
160 105 66
161 106 62
167 112 60
161 106 50
162 107 54
152 97 51
146 91 52
148 93 54
153 98 54
165 110 58
179 124 68
100 61 32
157 102 56
145 90 51
161 106 67
148 93 49
164 109 57
170 115 59
162 107 54
165 110 65
157 102 63
158 103 64
159 104 59
168 113 61
177 122 66
163 108 55
168 113 68
100 61 32
170 115 59
156 101 49
160 105 61
145 90 52
160 105 66
158 103 57
164 109 56
171 116 60
175 120 68
151 96 52
148 93 55
150 95 55
151 96 50
162 107 53
173 118 62
100 61 32
164 109 65
159 104 66
144 89 49
161 106 60
167 112 58
163 108 52
168 113 62
147 92 48
143 88 50
146 91 51
159 104 57
158 103 49
161 106 50
174 119 68
150 95 52
100 61 32
162 107 51
156 101 50
161 106 63
146 91 53
161 106 66
166 111 64
160 105 51
179 124 68
169 114 64
152 97 54
142 87 49
147 92 52
155 100 52
176 121 67
173 118 62
100 61 32
147 92 50
149 94 56
159 104 64
151 96 48
162 107 53
167 112 56
165 110 60
152 97 55
148 93 55
156 101 60
153 98 50
173 118 63
159 104 48
160 105 55
155 100 58
100 61 32
179 124 68
160 105 55
148 93 51
161 106 68
154 99 58
159 104 56
164 109 54
159 104 49
167 112 62
147 92 50
157 102 64
147 92 51
153 98 50
167 112 57
175 120 65
100 61 32
154 99 57
161 106 68
163 108 67
166 111 63
162 107 52
162 107 52
168 113 63
161 106 64
152 97 59
152 97 56
169 114 66
163 108 53
172 117 62
161 106 57
165 110 68
100 61 32
176 121 65
154 99 49
150 95 53
158 103 65
159 104 64
166 111 63
178 123 68
173 118 62
154 99 49
160 105 63
147 92 54
146 91 50
163 108 60
167 112 57
162 107 52
100 61 32
160 105 63
161 106 68
150 95 54
151 96 48
166 111 56
173 118 63
169 114 64
160 105 63
154 99 61
151 96 55
160 105 57
160 105 50
169 114 59
153 98 48
152 97 55
100 61 32
162 107 51
162 107 56
153 98 55
142 87 49
147 92 52
170 115 68
165 110 56
174 119 63
174 119 68
150 95 52
154 99 61
153 98 58
168 113 66
169 114 60
163 108 52
100 61 32
149 94 51
161 106 68
153 98 58
165 110 63
160 105 51
178 123 67
174 119 68
147 92 49
146 91 53
153 98 58
153 98 51
165 110 56
164 109 53
171 116 65
149 94 51
100 61 32
166 111 55
158 103 50
168 113 68
145 90 51
143 88 49
151 96 51
170 115 62
174 119 63
166 111 59
160 105 60
143 88 49
146 91 52
150 95 50
162 107 54
176 121 65
100 61 32
150 95 50
149 94 55
162 107 68
160 105 60
166 111 58
172 117 61
156 101 49
151 96 52
150 95 56
147 92 53
166 111 65
170 115 62
176 121 65
175 120 68
156 101 57
100 61 32
160 105 49
168 113 59
153 98 51
159 104 64
153 98 60
146 91 48
154 99 48
159 104 48
162 107 53
166 111 64
146 91 51
152 97 59
164 109 66
170 115 64
178 123 67
100 61 32
164 109 62
145 90 50
146 91 53
164 109 66
172 117 66
170 115 59
169 114 60
164 109 62
143 88 48
157 102 64
162 107 64
170 115 64
165 110 54
177 122 68
169 114 67
100 61 32
160 105 50
177 122 67
155 100 50
157 102 60
144 89 51
144 89 48
161 106 58
160 105 50
165 110 55
173 118 68
152 97 55
156 101 63
154 99 58
163 108 59
165 110 55
100 61 32
159 104 55
163 108 66
141 86 48
158 103 62
167 112 63
169 114 59
163 108 53
163 108 59
165 110 68
150 95 57
160 105 64
168 113 64
163 108 53
162 107 52
166 111 62
100 61 32
173 118 65
171 116 60
164 109 57
167 112 68
155 100 61
149 94 55
165 110 64
169 114 61
172 117 61
158 103 51
158 103 59
161 106 67
146 91 52
167 112 66
160 105 52
100 61 32
164 109 57
150 95 51
151 96 57
151 96 57
169 114 68
161 106 53
176 121 65
166 111 59
160 105 61
153 98 60
154 99 60
163 108 62
162 107 53
173 118 62
172 117 65
100 61 32
159 104 53
160 105 49
176 121 67
169 114 67
144 89 49
148 93 55
166 111 68
174 119 68
161 106 50
164 109 55
150 95 48
155 100 60
141 86 48
153 98 55
160 105 54
100 61 32
162 107 53
156 101 54
150 95 55
142 87 49
162 107 63
159 104 53
164 109 53
168 113 59
164 109 63
161 106 66
148 93 55
147 92 48
170 115 63
161 106 50
165 110 56
100 61 32
158 103 54
166 111 56
171 116 61
154 99 50
164 109 68
146 91 53
152 97 56
153 98 49
162 107 52
168 113 58
159 104 55
156 101 60
145 90 52
150 95 53
163 108 59
100 61 32
163 108 53
163 108 59
152 97 56
160 105 67
151 96 54
168 113 64
166 111 56
158 103 48
168 113 64
151 96 55
145 90 52
149 94 52
152 97 48
177 122 67
162 107 52
100 61 32
170 115 68
158 103 49
164 109 53
166 111 60
161 106 63
145 90 52
145 90 50
150 95 48
176 121 67
164 109 53
170 115 65
151 96 53
159 104 66
157 102 62
158 103 55
100 61 32
165 110 54
154 99 49
161 106 63
145 90 52
157 102 62
161 106 58
170 115 61
169 114 58
173 118 68
157 102 60
148 93 55
157 102 61
152 97 49
161 106 51
160 105 49
100 61 32
154 99 53
164 109 55
172 117 61
156 101 50
147 92 48
160 105 67
153 98 58
150 95 49
165 110 56
167 112 56
174 119 68
147 92 48
160 105 67
146 91 51
153 98 51
100 61 32
159 104 48
169 114 63
165 110 67
160 105 67
146 91 51
150 95 48
163 108 54
169 114 58
162 107 56
161 106 63
154 99 61
146 91 51
167 112 65
167 112 58
178 123 67
100 61 32
100 61 32
100 61 32
100 61 32
100 61 32
100 61 32
100 61 32
100 61 32
100 61 32
100 61 32
100 61 32
100 61 32
100 61 32
100 61 32
100 61 32
100 61 32
100 61 32
100 61 32
100 61 32
100 61 32
100 61 32
100 61 32
100 61 32
100 61 32
100 61 32
100 61 32
100 61 32
100 61 32
100 61 32
100 61 32
100 61 32
100 61 32
100 61 32
160 105 58
161 106 52
175 120 64
161 106 55
150 95 52
153 98 60
144 89 49
166 111 64
163 108 54
170 115 59
161 106 55
156 101 58
145 90 52
143 88 48
150 95 48
100 61 32
162 107 51
171 116 65
161 106 63
154 99 61
161 106 66
162 107 60
168 113 59
160 105 49
163 108 57
160 105 62
152 97 59
161 106 66
160 105 58
160 105 51
159 104 48
100 61 32
160 105 57
176 121 66
174 119 64
158 103 53
162 107 65
145 90 52
156 101 60
168 113 65
160 105 50
175 120 65
173 118 68
158 103 61
157 102 64
157 102 61
151 96 48
100 61 32
160 105 50
171 116 67
146 91 49
151 96 58
156 101 60
164 109 60
159 104 49
176 121 66
165 110 61
160 105 63
160 105 67
154 99 58
152 97 48
161 106 51
164 109 54
100 61 32
164 109 59
161 106 50
159 104 49
158 103 55
148 93 53
156 101 63
165 110 68
172 117 67
164 109 53
175 120 66
161 106 58
143 88 48
153 98 60
164 109 66
159 104 54
100 61 32
170 115 61
162 107 59
158 103 63
152 97 59
147 92 49
165 110 59
172 117 61
174 119 65
166 111 64
161 106 66
153 98 60
148 93 50
160 105 54
160 105 49
173 118 64
100 61 32
165 110 58
176 121 65
158 103 50
162 107 62
153 98 59
156 101 62
163 108 63
163 108 56
179 124 68
159 104 51
153 98 53
156 101 62
144 89 50
148 93 48
160 105 53
100 61 32
164 109 56
149 94 49
159 104 65
152 97 58
156 101 56
172 117 64
160 105 49
176 121 68
157 102 57
147 92 53
153 98 59
155 100 55
158 103 50
176 121 65
168 113 61
100 61 32
158 103 49
170 115 59
165 110 59
162 107 64
156 101 63
156 101 61
155 100 53
177 122 68
176 121 65
161 106 55
157 102 59
160 105 67
149 94 54
169 114 67
171 116 62
100 61 32
166 111 61
163 108 65
155 100 62
148 93 53
155 100 52
163 108 54
170 115 59
168 113 63
160 105 63
144 89 51
147 92 52
157 102 54
159 104 50
167 112 56
159 104 54
100 61 32
169 114 59
159 104 49
163 108 60
156 101 60
151 96 58
155 100 58
153 98 48
174 119 64
174 119 64
169 114 66
158 103 62
142 87 49
149 94 52
156 101 51
173 118 62
100 61 32
162 107 59
160 105 64
156 101 63
151 96 54
156 101 51
166 111 55
176 121 67
167 112 64
143 88 48
157 102 64
146 91 48
165 110 60
167 112 56
177 122 68
168 113 65
100 61 32
160 105 49
164 109 56
157 102 56
146 91 52
149 94 55
149 94 50
161 106 54
161 106 50
172 117 64
167 112 66
151 96 57
149 94 55
160 105 61
164 109 57
170 115 59
100 61 32
157 102 57
157 102 63
158 103 64
155 100 55
169 114 62
179 124 68
176 121 68
151 96 51
145 90 51
159 104 65
160 105 60
170 115 63
169 114 58
165 110 57
156 101 56
100 61 32
159 104 48
160 105 53
147 92 48
157 102 64
157 102 63
158 103 57
160 105 51
167 112 56
165 110 58
159 104 60
151 96 58
148 93 53
168 113 67
169 114 60
162 107 51
100 61 32
151 96 52
149 94 56
145 90 50
163 108 62
161 106 52
169 114 58
169 114 63
147 92 49
150 95 57
148 93 53
151 96 49
167 112 58
170 115 59
165 110 59
158 103 60
100 61 32
169 114 58
167 112 61
152 97 54
148 93 55
152 97 57
166 111 64
174 119 65
179 124 68
164 109 59
153 98 55
158 103 65
144 89 49
161 106 58
171 116 62
164 109 53
100 61 32
158 103 61
141 86 48
153 98 58
153 98 50
164 109 54
174 119 63
165 110 60
156 101 59
152 97 59
163 108 67
158 103 55
168 113 58
167 112 56
166 111 61
163 108 66
100 61 32
159 104 48
155 100 50
161 106 64
146 91 53
149 94 53
167 112 64
160 105 50
167 112 57
164 109 59
147 92 50
143 88 50
162 107 66
164 109 61
172 117 62
170 115 60
100 61 32
165 110 68
151 96 58
162 107 66
161 106 58
159 104 49
168 113 58
154 99 49
160 105 63
141 86 48
159 104 63
168 113 65
169 114 59
166 111 56
158 103 54
157 102 60
100 61 32
168 113 57
172 117 67
145 90 48
148 93 55
161 106 66
171 116 68
164 109 54
176 121 65
172 117 67
145 90 48
152 97 59
147 92 51
163 108 60
173 118 63
178 123 67
100 61 32
152 97 55
153 98 60
154 99 58
170 115 67
174 119 64
165 110 55
170 115 65
155 100 58
142 87 49
144 89 48
155 100 52
169 114 59
178 123 68
164 109 59
145 90 48
100 61 32
170 115 59
157 102 51
155 100 57
155 100 62
156 101 61
154 99 52
175 120 66
159 104 48
158 103 52
146 91 48
153 98 60
143 88 48
170 115 68
175 120 66
162 107 51
100 61 32
163 108 65
161 106 68
146 91 51
167 112 65
173 118 64
172 117 61
157 102 51
147 92 49
142 87 49
154 99 59
155 100 53
174 119 65
174 119 63
169 114 63
164 109 66
100 61 32
179 124 68
162 107 54
160 105 60
150 95 56
148 93 54
152 97 52
160 105 52
161 106 50
170 115 62
158 103 58
157 102 63
158 103 64
164 109 64
172 117 64
170 115 59
100 61 32
166 111 66
161 106 67
156 101 62
148 93 48
164 109 56
162 107 51
163 108 56
167 112 67
142 87 48
149 94 55
161 106 61
158 103 50
179 124 68
155 100 48
152 97 53
100 61 32
161 106 50
162 107 53
150 95 48
156 101 61
146 91 53
161 106 63
154 99 48
172 117 61
172 117 63
151 96 49
145 90 50
147 92 54
164 109 66
162 107 56
165 110 54
100 61 32
170 115 68
143 88 48
160 105 67
163 108 65
155 100 49
176 121 65
177 122 68
166 111 64
161 106 66
155 100 62
154 99 56
173 118 67
170 115 59
159 104 50
153 98 51
100 61 32
162 107 52
164 109 54
166 111 61
156 101 59
156 101 63
163 108 67
171 116 68
161 106 51
176 121 66
153 98 48
150 95 53
147 92 54
144 89 48
153 98 50
158 103 48
100 61 32
153 98 48
152 97 55
144 89 51
163 108 67
153 98 49
167 112 57
165 110 55
157 102 53
150 95 53
145 90 52
160 105 64
163 108 59
164 109 54
159 104 49
153 98 49
